!!!!SEGMENT: pl-stab--18a_dankowski-adalbert--salve-regina.krn
!!!cenid: 18xx:3460
!!!COM: Dankowski, Adalbert
!!!COM-rismID: pe30000793
!!!CDT: ~1760-~1836
!!!CNT: Polish
!!!OTL: Salve Regina
!!!PDT:
!!!AGN:
!!!SMS-siglum: PL-STAb
!!!SMS-shelfmark: 18a
!!!SMS-shelfwork: W
!!!SMS-variant:
!!!SMS-altvar:
!!!NIFC-rismSourceID: 301050571
!!!NIFC-islandoraID: pl-stab:3021
!!!URL-pdf-islandora: https://repozytorium.nifc.pl/islandora/object/pl-stab%3A3021/datastream/PDF/view
!!!URL-scan: https://polish.musicsources.pl/pl/lokalizacje/galeria/rekopisy/4431 @EN{Scan on Polish Music Herritage in Open Access Website} @PL{Skany w portalu Dziedzictwo Muzyki Polskiej w otwartym dostępie}
!!!ONB-nifc:
!!!AIN: 1 bass 2 clarb 1 organ 2 violn
!!!key: E-
**kern	**fba	**dynam	**kern	**dynam	**mod-dynam	**kern	**dynam	**kern	**text	**dynam	**mod-dynam	**kern	**dynam	**mod-dynam	**kern	**dynam	**mod-dynam
*	*	*	*group2	*	*	*group2	*	*	*	*	*	*group1	*	*	*group1	*	*
*part6	*part6	*part6	*part5	*part5	*part5	*part4	*part4	*part3	*part3	*part3	*part3	*part2	*part2	*part2	*part1	*part1	*part1
*staff6	*staff6	*staff6	*staff5	*staff5	*staff5	*staff4	*staff4	*staff3	*staff3	*	*	*staff2	*staff2	*staff2	*staff1	*staff1	*staff1
*I"Baſso	*	*	*I"Violino Secundo	*	*	*I"Violino Primo	*	*I"Baſso Solo	*	*	*	*I"Clarinetto Secundo in Dis	*	*	*I"Clarinetto Primo in Dis	*	*
*mI"Basso	*	*	*mI"Violino II	*	*	*mI"Violino I	*	*mI"Basso solo	*	*	*	*mI"Clarinetto II in B	*	*	*mI"Clarinetto I in B	*	*
*I'b	*	*	*I'vl 2	*	*	*I'vl 1	*	*I'B Solo	*	*	*	*I'cl 2 in E♭	*	*	*I'cl 1 in E♭	*	*
*mI' bc	*	*	*mI' vl II	*	*	*mI' vl I	*	*mI'	*	*	*	*mI' cl II	*	*	*mI'cl I	*	*
*Iorgan	*	*	*Ivioln	*	*	*Ivioln	*	*Ibass	*	*	*	*Iclarb	*	*	*Iclarb	*	*
*ICklav	*	*	*ICstr	*	*	*ICstr	*	*ICvox	*	*	*	*ICww	*	*	*ICww	*	*
*IGcont	*	*	*	*	*	*	*	*IGsolo	*	*	*	*	*	*	*	*	*
*clefF4	*	*	*clefG2	*	*	*clefG2	*	*clefF4	*	*	*	*clefG2	*	*	*clefG2	*	*
*	*	*	*	*	*	*	*	*	*	*	*	*ITrd1c2	*	*	*ITrd1c2	*	*
*k[b-e-a-]	*	*	*k[b-e-a-]	*	*	*k[b-e-a-]	*	*k[b-e-a-]	*	*	*	*k[b-e-a-]	*	*	*k[b-e-a-]	*	*
*E-:	*	*	*E-:	*	*	*E-:	*	*E-:	*	*	*	*E-:	*	*	*E-:	*	*
*M2/4	*	*	*M2/4	*	*	*M2/4	*	*M2/4	*	*	*	*M2/4	*	*	*M2/4	*	*
*all\left	*	*	*all\left	*	*	*all\left	*	*all\left	*	*	*	*all\left	*	*	*all\left	*	*
*2\right	*	*	*2\right	*	*	*2\right	*	*2\right	*	*	*	*2\right	*	*	*2\right	*	*
=1	=1	=1	=1	=1	=1	=1	=1	=1	=1	=1	=1	=1	=1	=1	=1	=1	=1
!LO:MO:null:mod=!LO&colon;TX&colon;a&colon;i&colon;t=Moderato	!	!	!	!	!	!	!	!LO:TX:a:i:t=Moderato	!	!	!	!LO:MO:null:mod=!LO&colon;TX&colon;a&colon;i&colon;t=Moderato	!	!	!	!	!
!	!	!LO:DY:a:t=p.:mod=	!LO:TX:a:i:t=Moderato	!	!	!LO:TX:a:i:t=Moderato	!	!LO:TX:a:i:t=31.:mod=	!	!	!	!	!	!	!LO:TX:a:i:t=Moderato	!	!
!	!	!	!	!	!	!	!	!	!	!	!	!LO:TX:t=P:problem=według nazwy instrument in E♭, w rzeczywistości in B♭	!	!	!LO:TX:t=P:problem=według nazwy instrument in E♭, w rzeczywistości in B♭	!	!
!LO:TX:t=P:BB-E-A-:problem=znaki przykluczowe	!	!	!	!	!	!	!	!LO:TX:t=P:E-AA-D-:problem=nieprecyzyjny zapis znaków przykluczowych	!	!	!	!	!	!	!	!	!
!	!	!	!	!	!LO:MO:null:mod=!LO&colon;DY&colon;ed=brack	!	!LO:MO:null:mod=!LO&colon;DY&colon;ed=brack	!	!	!	!	!	!	!LO:MO:null:mod=!LO&colon;DY&colon;ed=brack	!	!	!LO:MO:null:mod=!LO&colon;DY&colon;ed=brack
!	!	!	!	!	!	!	!	!	!	!	!	!	!	!	!	!	!
8E-\L	.	p	4.G/	.	p	4.e- 4.G/	p	2r	.	.	.	4.g/	.	p	4.ee-\	.	p
8E-\	.	.	.	.	.	.	.	.	.	.	.	.	.	.	.	.	.
8E-\	.	.	.	.	.	.	.	.	.	.	.	.	.	.	.	.	.
8E-\J	.	.	16A-/LL	.	.	16f/LL	.	.	.	.	.	16a-/LL	.	.	16ff\LL	.	.
.	.	.	16B-/JJ	.	.	16g/JJ	.	.	.	.	.	16b-/JJ	.	.	16gg\JJ	.	.
=2	=2	=2	=2	=2	=2	=2	=2	=2	=2	=2	=2	=2	=2	=2	=2	=2	=2
*tremolo	*	*	*	*	*	*	*	*	*	*	*	*	*	*	*	*	*
.	.	.	.	.	.	8qqg/	.	.	.	.	.	.	.	.	8qqgg/	.	.
8E-\L	.	.	8A-/L	.	.	8f/L	.	2r	.	.	.	8a-/L	.	.	8ff\L	.	.
8E-\	.	.	8G/J	.	.	8e-/J	.	.	.	.	.	8g/J	.	.	8ee-\J	.	.
8E-\	.	.	8r	.	.	8r	.	.	.	.	.	8r	.	.	8r	.	.
8E-\J	.	.	8B-/	.	.	8g/	.	.	.	.	.	8b-/	.	.	8gg\	.	.
=3	=3	=3	=3	=3	=3	=3	=3	=3	=3	=3	=3	=3	=3	=3	=3	=3	=3
.	.	.	.	.	.	8qqg/	.	.	.	.	.	.	.	.	.	.	.
8E-\L	.	.	8A-/L	.	.	8f/L	.	2r	.	.	.	8a-/L	.	.	8ff\L	.	.
8E-\	.	.	8G/J	.	.	8e-/J	.	.	.	.	.	8g/J	.	.	8ee-\J	.	.
8E-\	.	.	4r	.	.	4r	.	.	.	.	.	4r	.	.	4r	.	.
8E-\J	.	.	.	.	.	.	.	.	.	.	.	.	.	.	.	.	.
=4	=4	=4	=4	=4	=4	=4	=4	=4	=4	=4	=4	=4	=4	=4	=4	=4	=4
8BB-/L	.	.	4.d/	.	.	4.f 4.B-/	.	2r	.	.	.	4.dd\	.	.	4.ff\	.	.
8BB-/	.	.	.	.	.	.	.	.	.	.	.	.	.	.	.	.	.
8BB-/	.	.	.	.	.	.	.	.	.	.	.	.	.	.	.	.	.
8BB-/J	.	.	16e-/LL	.	.	16g/LL	.	.	.	.	.	16ee-\LL	.	.	16gg\LL	.	.
.	.	.	16f/JJ	.	.	16a-/JJ	.	.	.	.	.	16ff\JJ	.	.	16aa-\JJ	.	.
=5	=5	=5	=5	=5	=5	=5	=5	=5	=5	=5	=5	=5	=5	=5	=5	=5	=5
.	.	.	8qqf/	.	.	8qqa-/	.	.	.	.	.	8qqff/	.	.	.	.	.
8BB-/L	.	.	8e-/L	.	.	8g/L	.	2r	.	.	.	8ee-\L	.	.	8gg\L	.	.
8BB-/	.	.	8d/J	.	.	8f/J	.	.	.	.	.	8dd\J	.	.	8ff\J	.	.
8BB-/	.	.	8r	.	.	8r	.	.	.	.	.	8r	.	.	8r	.	.
8BB-/J	.	.	8f/	.	.	8a-/	.	.	.	.	.	8ff\	.	.	8aa-\	.	.
=6	=6	=6	=6	=6	=6	=6	=6	=6	=6	=6	=6	=6	=6	=6	=6	=6	=6
.	.	.	.	.	.	.	.	.	.	.	.	8qqff/	.	.	.	.	.
8BB-/L	.	.	8e-/L	.	.	8g/L	.	2r	.	.	.	8ee-\L	.	.	8gg\L	.	.
8BB-/	.	.	8d/J	.	.	8f/J	.	.	.	.	.	8dd\J	.	.	8ff\J	.	.
8BB-/	.	.	4r	.	.	4r	.	.	.	.	.	8r	.	.	4r	.	.
8BB-/J	.	.	.	.	.	.	.	.	.	.	.	8ff\	.	.	.	.	.
*Xtremolo	*	*	*	*	*	*	*	*	*	*	*	*	*	*	*	*	*
=7	=7	=7	=7	=7	=7	=7	=7	=7	=7	=7	=7	=7	=7	=7	=7	=7	=7
!	!	!	!	!	!	!LO:TX:a:t=P:problem=mixed beam	!	!	!	!	!	!	!	!	!LO:TX:a:t=P:problem=mixed beam	!	!
!	!	!LO:MO:null:mod=!LO&colon;DY&colon;ed=brack	!	!	!LO:MO:null:mod=!LO&colon;DY&colon;ed=brack	!LO:LB:g=original	!	!	!	!	!	!	!	!	!	!	!
!	!	!	!	!	!	!	!LO:DY:b:t=f.:mod=	!	!	!	!	!	!	!	!	!	!
8E-\L	.	f	8r	.	f	8e-/L	f	2r	.	.	.	8r	.	.	8e-/L	.	.
8E-\	.	.	8g/L	.	.	8ee-\	.	.	.	.	.	8g/L	.	.	8ee-\	.	.
8F\	.	.	8a-/	.	.	8ee-\	.	.	.	.	.	8a-/	.	.	8ee-\	.	.
8G\J	.	.	8b-/J	.	.	8ee-\J	.	.	.	.	.	8b-/J	.	.	8ee-\J	.	.
=8	=8	=8	=8	=8	=8	=8	=8	=8	=8	=8	=8	=8	=8	=8	=8	=8	=8
!LO:LB:g=original	!	!	!	!	!	!	!	!	!	!	!	!LO:LB:g=original	!	!	!	!	!
!	!	!	!LO:LB:g=original	!	!	!	!	!	!	!	!	!	!	!	!	!	!
.	.	.	8qqcc/	.	.	8qqee-/	.	.	.	.	.	.	.	.	.	.	.
4A-\	.	.	8b-\L	.	.	8dd\L	.	2r	.	.	.	2r	.	.	2r	.	.
.	.	.	16a-\L	.	.	16cc\L	.	.	.	.	.	.	.	.	.	.	.
.	.	.	16g\JJ	.	.	16b-\JJ	.	.	.	.	.	.	.	.	.	.	.
!LO:TX:a:t=P:problem=mixed beam	!	!	!	!	!	!	!	!	!	!	!	!	!	!	!	!	!
.	.	.	8qqg/	.	.	8qqb-/	.	.	.	.	.	.	.	.	.	.	.
8B-\L	.	.	8f/L	.	.	8a-/L	.	.	.	.	.	.	.	.	.	.	.
8BB-/J	.	.	16e-/L	.	.	16g/L	.	.	.	.	.	.	.	.	.	.	.
.	.	.	16d/JJ	.	.	16f/JJ	.	.	.	.	.	.	.	.	.	.	.
=9	=9	=9	=9	=9	=9	=9	=9	=9	=9	=9	=9	=9	=9	=9	=9	=9	=9
!	!	!	!	!	!	!LO:TX:a:t=P:problem=mixed beam	!	!	!	!	!	!	!	!	!LO:TX:a:t=P:problem=mixed beam	!	!
!	!	!	!	!	!	!	!	!	!	!	!	!	!	!	!LO:LB:g=original	!	!
8E-\L	.	.	8e-/L	.	.	8e-/L	.	2r	.	.	.	8r	.	.	8e-/L	.	.
8E-\	.	.	8g/	.	.	8ee-\	.	.	.	.	.	8g/L	.	.	8ee-\	.	.
8F\	.	.	8a-/	.	.	8ee-\	.	.	.	.	.	8a-/	.	.	8ee-\	.	.
8G\J	.	.	8b-/J	.	.	8ee-\J	.	.	.	.	.	8b-/J	.	.	8ee-\J	.	.
=10	=10	=10	=10	=10	=10	=10	=10	=10	=10	=10	=10	=10	=10	=10	=10	=10	=10
.	.	.	8qqcc/	.	.	8qqee-/	.	.	.	.	.	.	.	.	.	.	.
4A-\	.	.	8b-/L	.	.	8dd\L	.	2r	.	.	.	2r	.	.	2r	.	.
.	.	.	16a-/L	.	.	16cc\L	.	.	.	.	.	.	.	.	.	.	.
.	.	.	16g/JJ	.	.	16b-\JJ	.	.	.	.	.	.	.	.	.	.	.
!LO:TX:a:t=P:problem=mixed beam	!	!	!	!	!	!	!	!	!	!	!	!	!	!	!	!	!
.	.	.	8qqg/	.	.	8qqb-/	.	.	.	.	.	.	.	.	.	.	.
8B-\L	.	.	8f/L	.	.	8a-/L	.	.	.	.	.	.	.	.	.	.	.
8BB-/J	.	.	16e-/L	.	.	16g/L	.	.	.	.	.	.	.	.	.	.	.
.	.	.	16d/JJ	.	.	16f/JJ	.	.	.	.	.	.	.	.	.	.	.
=11	=11	=11	=11	=11	=11	=11	=11	=11	=11	=11	=11	=11	=11	=11	=11	=11	=11
*tremolo	*	*	*	*	*	*	*	*	*	*	*	*	*	*	*	*	*
!	!	!LO:DY:a:t=for.:mod=	!	!	!	!	!	!	!	!	!	!	!	!	!	!	!
!	!	!	!	!	!	!	!	!	!	!	!	!LO:TX:t=P:problem=brak taktu	!	!	!LO:TX:t=P:problem=brak taktu	!	!
16E-\LL	.	f	32G/LLL	.	.	8.e-/L	.	2r	.	.	.	2ryy	.	.	2ryy	.	.
.	.	.	32e-/	.	.	.	.	.	.	.	.	.	.	.	.	.	.
16E-\	.	.	32b-/	.	.	.	.	.	.	.	.	.	.	.	.	.	.
.	.	.	32e-/JJJ	.	.	.	.	.	.	.	.	.	.	.	.	.	.
*	*	*	*rep	*	*	*	*	*	*	*	*	*	*	*	*	*	*
16E-\	.	.	32G/LLL	.	.	.	.	.	.	.	.	.	.	.	.	.	.
.	.	.	32e-/	.	.	.	.	.	.	.	.	.	.	.	.	.	.
16E-\	.	.	32b-/	.	.	16g/Jk	.	.	.	.	.	.	.	.	.	.	.
.	.	.	32e-/JJJ	.	.	.	.	.	.	.	.	.	.	.	.	.	.
*	*	*	*Xrep	*	*	*	*	*	*	*	*	*	*	*	*	*	*
16E-\	.	.	32G/LLL	.	.	8.b-\L	.	.	.	.	.	.	.	.	.	.	.
.	.	.	32e-/	.	.	.	.	.	.	.	.	.	.	.	.	.	.
16E-\	.	.	32b-/	.	.	.	.	.	.	.	.	.	.	.	.	.	.
.	.	.	32e-/JJJ	.	.	.	.	.	.	.	.	.	.	.	.	.	.
*	*	*	*rep	*	*	*	*	*	*	*	*	*	*	*	*	*	*
16E-\	.	.	32G/LLL	.	.	.	.	.	.	.	.	.	.	.	.	.	.
.	.	.	32e-/	.	.	.	.	.	.	.	.	.	.	.	.	.	.
16E-\JJ	.	.	32b-/	.	.	16ee-\Jk	.	.	.	.	.	.	.	.	.	.	.
.	.	.	32e-/JJJ	.	.	.	.	.	.	.	.	.	.	.	.	.	.
*	*	*	*Xrep	*	*	*	*	*	*	*	*	*	*	*	*	*	*
=12	=12	=12	=12	=12	=12	=12	=12	=12	=12	=12	=12	=12	=12	=12	=12	=12	=12
16E-\LL	.	.	32G/LLL	.	.	8.gg\L	.	2r	.	.	.	8.ee-\L	.	.	8.gg\L	.	.
.	.	.	32e-/	.	.	.	.	.	.	.	.	.	.	.	.	.	.
16E-\	.	.	32b-/	.	.	.	.	.	.	.	.	.	.	.	.	.	.
.	.	.	32e-/JJJ	.	.	.	.	.	.	.	.	.	.	.	.	.	.
*	*	*	*rep	*	*	*	*	*	*	*	*	*	*	*	*	*	*
16E-\	.	.	32G/LLL	.	.	.	.	.	.	.	.	.	.	.	.	.	.
.	.	.	32e-/	.	.	.	.	.	.	.	.	.	.	.	.	.	.
16E-\	.	.	32b-/	.	.	16bb-\Jk	.	.	.	.	.	16bb-\Jk	.	.	16bb-\Jk	.	.
.	.	.	32e-/JJJ	.	.	.	.	.	.	.	.	.	.	.	.	.	.
*	*	*	*Xrep	*	*	*	*	*	*	*	*	*	*	*	*	*	*
*	*	*	*rep	*	*	*	*	*	*	*	*	*	*	*	*	*	*
16E-\	.	.	32G/LLL	.	.	8gg\	.	.	.	.	.	8ee-\	.	.	8gg\	.	.
.	.	.	32e-/	.	.	.	.	.	.	.	.	.	.	.	.	.	.
16E-\	.	.	32b-/	.	.	.	.	.	.	.	.	.	.	.	.	.	.
.	.	.	32e-/JJJ	.	.	.	.	.	.	.	.	.	.	.	.	.	.
*	*	*	*Xrep	*	*	*	*	*	*	*	*	*	*	*	*	*	*
*	*	*	*rep	*	*	*	*	*	*	*	*	*	*	*	*	*	*
16E-\	.	.	32G/LLL	.	.	8r	.	.	.	.	.	8r	.	.	8r	.	.
.	.	.	32e-/	.	.	.	.	.	.	.	.	.	.	.	.	.	.
16E-\JJ	.	.	32b-/	.	.	.	.	.	.	.	.	.	.	.	.	.	.
.	.	.	32e-/JJJ	.	.	.	.	.	.	.	.	.	.	.	.	.	.
*	*	*	*Xrep	*	*	*	*	*	*	*	*	*	*	*	*	*	*
=13	=13	=13	=13	=13	=13	=13	=13	=13	=13	=13	=13	=13	=13	=13	=13	=13	=13
16E-\LL	6_ 4_	.	32A-/LLL	.	.	8.e-/L	.	2r	.	.	.	2r	.	.	2r	.	.
.	.	.	32e-/	.	.	.	.	.	.	.	.	.	.	.	.	.	.
16E-\	.	.	32cc/	.	.	.	.	.	.	.	.	.	.	.	.	.	.
.	.	.	32e-/JJJ	.	.	.	.	.	.	.	.	.	.	.	.	.	.
*	*	*	*rep	*	*	*	*	*	*	*	*	*	*	*	*	*	*
16E-\	.	.	32A-/LLL	.	.	.	.	.	.	.	.	.	.	.	.	.	.
.	.	.	32e-/	.	.	.	.	.	.	.	.	.	.	.	.	.	.
16E-\	.	.	32cc/	.	.	16a-/Jk	.	.	.	.	.	.	.	.	.	.	.
.	.	.	32e-/JJJ	.	.	.	.	.	.	.	.	.	.	.	.	.	.
*	*	*	*Xrep	*	*	*	*	*	*	*	*	*	*	*	*	*	*
!	!	!	!LO:LB:g=original	!	!	!	!	!	!	!	!	!	!	!	!	!	!
16E-\	.	.	32A-/LLL	.	.	8.cc\L	.	.	.	.	.	.	.	.	.	.	.
.	.	.	32e-/	.	.	.	.	.	.	.	.	.	.	.	.	.	.
16E-\	.	.	32cc/	.	.	.	.	.	.	.	.	.	.	.	.	.	.
.	.	.	32e-/JJJ	.	.	.	.	.	.	.	.	.	.	.	.	.	.
*	*	*	*rep	*	*	*	*	*	*	*	*	*	*	*	*	*	*
16E-\	.	.	32A-/LLL	.	.	.	.	.	.	.	.	.	.	.	.	.	.
.	.	.	32e-/	.	.	.	.	.	.	.	.	.	.	.	.	.	.
16E-\JJ	.	.	32cc/	.	.	16ee-\Jk	.	.	.	.	.	.	.	.	.	.	.
.	.	.	32e-/JJJ	.	.	.	.	.	.	.	.	.	.	.	.	.	.
*	*	*	*Xrep	*	*	*	*	*	*	*	*	*	*	*	*	*	*
=14	=14	=14	=14	=14	=14	=14	=14	=14	=14	=14	=14	=14	=14	=14	=14	=14	=14
*	*	*	*rep	*	*	*	*	*	*	*	*	*	*	*	*	*	*
16E-\LL	.	.	32A-/LLL	.	.	8.aa-\L	.	2r	.	.	.	8.ff\L	.	.	8.aa-\L	.	.
.	.	.	32e-/	.	.	.	.	.	.	.	.	.	.	.	.	.	.
16E-\	.	.	32cc/	.	.	.	.	.	.	.	.	.	.	.	.	.	.
.	.	.	32e-/JJJ	.	.	.	.	.	.	.	.	.	.	.	.	.	.
*	*	*	*Xrep	*	*	*	*	*	*	*	*	*	*	*	*	*	*
*	*	*	*rep	*	*	*	*	*	*	*	*	*	*	*	*	*	*
16E-\	.	.	32A-/LLL	.	.	.	.	.	.	.	.	.	.	.	.	.	.
.	.	.	32e-/	.	.	.	.	.	.	.	.	.	.	.	.	.	.
16E-\	.	.	32cc/	.	.	16ccc\Jk	.	.	.	.	.	16aa-\Jk	.	.	16ccc\Jk	.	.
.	.	.	32e-/JJJ	.	.	.	.	.	.	.	.	.	.	.	.	.	.
*	*	*	*Xrep	*	*	*	*	*	*	*	*	*	*	*	*	*	*
*	*	*	*rep	*	*	*	*	*	*	*	*	*	*	*	*	*	*
!	!	!	!	!	!	!LO:LB:g=original	!	!	!	!	!	!	!	!	!	!	!
16E-\	.	.	32A-/LLL	.	.	8aa-\	.	.	.	.	.	8ff\	.	.	8aa-\	.	.
.	.	.	32e-/	.	.	.	.	.	.	.	.	.	.	.	.	.	.
16E-\	.	.	32cc/	.	.	.	.	.	.	.	.	.	.	.	.	.	.
.	.	.	32e-/JJJ	.	.	.	.	.	.	.	.	.	.	.	.	.	.
*	*	*	*Xrep	*	*	*	*	*	*	*	*	*	*	*	*	*	*
*	*	*	*rep	*	*	*	*	*	*	*	*	*	*	*	*	*	*
16E-\	.	.	32A-/LLL	.	.	8r	.	.	.	.	.	8r	.	.	8r	.	.
.	.	.	32e-/	.	.	.	.	.	.	.	.	.	.	.	.	.	.
16E-\JJ	X X	.	32cc/	.	.	.	.	.	.	.	.	.	.	.	.	.	.
.	.	.	32e-/JJJ	.	.	.	.	.	.	.	.	.	.	.	.	.	.
*	*	*	*Xrep	*	*	*	*	*	*	*	*	*	*	*	*	*	*
=15	=15	=15	=15	=15	=15	=15	=15	=15	=15	=15	=15	=15	=15	=15	=15	=15	=15
16E-\LL	.	.	32G/LLL	.	.	8.e-/L	.	2r	.	.	.	2r	.	.	2r	.	.
.	.	.	32e-/	.	.	.	.	.	.	.	.	.	.	.	.	.	.
16E-\	.	.	32b-/	.	.	.	.	.	.	.	.	.	.	.	.	.	.
.	.	.	32e-/JJJ	.	.	.	.	.	.	.	.	.	.	.	.	.	.
*	*	*	*rep	*	*	*	*	*	*	*	*	*	*	*	*	*	*
16E-\	.	.	32G/LLL	.	.	.	.	.	.	.	.	.	.	.	.	.	.
.	.	.	32e-/	.	.	.	.	.	.	.	.	.	.	.	.	.	.
16E-\	.	.	32b-/	.	.	16g/Jk	.	.	.	.	.	.	.	.	.	.	.
.	.	.	32e-/JJJ	.	.	.	.	.	.	.	.	.	.	.	.	.	.
*	*	*	*Xrep	*	*	*	*	*	*	*	*	*	*	*	*	*	*
*	*	*	*rep	*	*	*	*	*	*	*	*	*	*	*	*	*	*
16E-\	.	.	32G/LLL	.	.	8.b-\L	.	.	.	.	.	.	.	.	.	.	.
.	.	.	32e-/	.	.	.	.	.	.	.	.	.	.	.	.	.	.
16E-\	.	.	32b-/	.	.	.	.	.	.	.	.	.	.	.	.	.	.
.	.	.	32e-/JJJ	.	.	.	.	.	.	.	.	.	.	.	.	.	.
*	*	*	*Xrep	*	*	*	*	*	*	*	*	*	*	*	*	*	*
*	*	*	*rep	*	*	*	*	*	*	*	*	*	*	*	*	*	*
16E-\	.	.	32G/LLL	.	.	.	.	.	.	.	.	.	.	.	.	.	.
.	.	.	32e-/	.	.	.	.	.	.	.	.	.	.	.	.	.	.
16E-\JJ	.	.	32b-/	.	.	16ee-\Jk	.	.	.	.	.	.	.	.	.	.	.
.	.	.	32e-/JJJ	.	.	.	.	.	.	.	.	.	.	.	.	.	.
*	*	*	*Xrep	*	*	*	*	*	*	*	*	*	*	*	*	*	*
=16	=16	=16	=16	=16	=16	=16	=16	=16	=16	=16	=16	=16	=16	=16	=16	=16	=16
*	*	*	*rep	*	*	*	*	*	*	*	*	*	*	*	*	*	*
16E-\LL	.	.	32G/LLL	.	.	8.gg\L	.	2r	.	.	.	8.ee-\L	.	.	8.gg\L	.	.
.	.	.	32e-/	.	.	.	.	.	.	.	.	.	.	.	.	.	.
16E-\	.	.	32b-/	.	.	.	.	.	.	.	.	.	.	.	.	.	.
.	.	.	32e-/JJJ	.	.	.	.	.	.	.	.	.	.	.	.	.	.
*	*	*	*Xrep	*	*	*	*	*	*	*	*	*	*	*	*	*	*
*	*	*	*rep	*	*	*	*	*	*	*	*	*	*	*	*	*	*
16E-\	.	.	32G/LLL	.	.	.	.	.	.	.	.	.	.	.	.	.	.
.	.	.	32e-/	.	.	.	.	.	.	.	.	.	.	.	.	.	.
16E-\	.	.	32b-/	.	.	16bb-\Jk	.	.	.	.	.	16gg\Jk	.	.	16bb-\Jk	.	.
.	.	.	32e-/JJJ	.	.	.	.	.	.	.	.	.	.	.	.	.	.
*	*	*	*Xrep	*	*	*	*	*	*	*	*	*	*	*	*	*	*
*	*	*	*rep	*	*	*	*	*	*	*	*	*	*	*	*	*	*
16E-\	.	.	32G/LLL	.	.	8gg\	.	.	.	.	.	8ee-\	.	.	8gg\	.	.
.	.	.	32e-/	.	.	.	.	.	.	.	.	.	.	.	.	.	.
16E-\	.	.	32b-/	.	.	.	.	.	.	.	.	.	.	.	.	.	.
.	.	.	32e-/JJJ	.	.	.	.	.	.	.	.	.	.	.	.	.	.
*	*	*	*Xrep	*	*	*	*	*	*	*	*	*	*	*	*	*	*
*	*	*	*rep	*	*	*	*	*	*	*	*	*	*	*	*	*	*
16E-\	.	.	32G/LLL	.	.	8r	.	.	.	.	.	8r	.	.	8r	.	.
.	.	.	32e-/	.	.	.	.	.	.	.	.	.	.	.	.	.	.
16E-\JJ	.	.	32b-/	.	.	.	.	.	.	.	.	.	.	.	.	.	.
.	.	.	32e-/JJJ	.	.	.	.	.	.	.	.	.	.	.	.	.	.
*Xtremolo	*	*	*Xrep	*	*	*	*	*	*	*	*	*	*	*	*	*	*
=17	=17	=17	=17	=17	=17	=17	=17	=17	=17	=17	=17	=17	=17	=17	=17	=17	=17
4E-\	.	.	8e- 8G/	.	.	16gg\LL	.	2r	.	.	.	2r	.	.	2r	.	.
.	.	.	.	.	.	16ee-\	.	.	.	.	.	.	.	.	.	.	.
.	.	.	8r	.	.	16b-\	.	.	.	.	.	.	.	.	.	.	.
.	.	.	.	.	.	16g\JJ	.	.	.	.	.	.	.	.	.	.	.
4r	.	.	4r	.	.	16ee-\LL	.	.	.	.	.	.	.	.	.	.	.
.	.	.	.	.	.	16b-\	.	.	.	.	.	.	.	.	.	.	.
.	.	.	.	.	.	16g\	.	.	.	.	.	.	.	.	.	.	.
.	.	.	.	.	.	16e-\JJ	.	.	.	.	.	.	.	.	.	.	.
=18	=18	=18	=18	=18	=18	=18	=18	=18	=18	=18	=18	=18	=18	=18	=18	=18	=18
!LO:LB:g=original	!	!	!	!	!	!	!	!	!	!	!	!	!	!	!	!	!
8r	.	.	8.g/L	.	.	8.B-/L	.	2r	.	.	.	8.gg\L	.	.	8.bb-\L	.	.
8BB-/	.	.	.	.	.	.	.	.	.	.	.	.	.	.	.	.	.
.	.	.	16f/Jk	.	.	16A-/Jk	.	.	.	.	.	16ff\Jk	.	.	16aa-\Jk	.	.
!	!	!	!LO:LB:g=original	!	!	!	!	!	!	!	!	!	!	!	!	!	!
4E-\	.	.	8e-/	.	.	16G/LL	.	.	.	.	.	16ee-\LL	.	.	16gg\LL	.	.
.	.	.	.	.	.	16B-/	.	.	.	.	.	16gg\	.	.	16bb-\	.	.
.	.	.	8r	.	.	16e-/	.	.	.	.	.	16gg\	.	.	16bb-\	.	.
.	.	.	.	.	.	16g/JJ	.	.	.	.	.	16gg\JJ	.	.	16bb-\JJ	.	.
=19	=19	=19	=19	=19	=19	=19	=19	=19	=19	=19	=19	=19	=19	=19	=19	=19	=19
8r	.	.	8.g/L	.	.	8.B-/L	.	2r	.	.	.	8.gg\L	.	.	8.bb-\L	.	.
8BB-/	.	.	.	.	.	.	.	.	.	.	.	.	.	.	.	.	.
.	.	.	16f/Jk	.	.	16A-/Jk	.	.	.	.	.	16ff\Jk	.	.	16aa-\Jk	.	.
4E-\	.	.	8e-/	.	.	16G/LL	.	.	.	.	.	16ee-\LL	.	.	16gg\LL	.	.
.	.	.	.	.	.	16B-/	.	.	.	.	.	16gg\	.	.	16bb-\	.	.
.	.	.	8r	.	.	16e-/	.	.	.	.	.	16gg\	.	.	16bb-\	.	.
.	.	.	.	.	.	16g/JJ	.	.	.	.	.	16gg\JJ	.	.	16bb-\JJ	.	.
=20	=20	=20	=20	=20	=20	=20	=20	=20	=20	=20	=20	=20	=20	=20	=20	=20	=20
!	!	!	!	!	!	!	!	!	!	!	!	!	!	!	!LO:LB:g=original	!	!
!	!	!	!	!	!	!	!	!	!	!	!	!LO:LB:g=original	!	!	!	!	!
8r	.	.	8.g/L	.	.	8.B-/L	.	2r	.	.	.	8.gg\	.	.	8.bb-\L	.	.
8BB-/	.	.	.	.	.	.	.	.	.	.	.	.	.	.	.	.	.
.	.	.	16f/Jk	.	.	16A-/Jk	.	.	.	.	.	16ff\	.	.	16aa-\Jk	.	.
4EE-/	.	.	8e-/	.	.	8G/	.	.	.	.	.	8ee-\	.	.	8gg\	.	.
.	.	.	8r	.	.	8r	.	.	.	.	.	8r	.	.	8r	.	.
=21	=21	=21	=21	=21	=21	=21	=21	=21	=21	=21	=21	=21	=21	=21	=21	=21	=21
*tremolo	*	*	*	*	*	*	*	*	*	*	*	*	*	*	*	*	*
8A-\L	5:6_	.	8e-/L	.	.	16bn\LL	.	2r	.	.	.	2r	.	.	2r	.	.
.	.	.	.	.	.	16cc\J	.	.	.	.	.	.	.	.	.	.	.
8A-\	.	.	8e-/	.	.	8.cc\J	.	.	.	.	.	.	.	.	.	.	.
8A-\	.	.	8f/	.	.	.	.	.	.	.	.	.	.	.	.	.	.
!	!	!	!	!	!	!LO:LB:g=original	!	!	!	!	!	!	!	!	!	!	!
.	.	.	.	.	.	16aa-\LL	.	.	.	.	.	.	.	.	.	.	.
8A-\J	.	.	8f/J	.	.	16ff\	.	.	.	.	.	.	.	.	.	.	.
.	.	.	.	.	.	16dd\JJ	.	.	.	.	.	.	.	.	.	.	.
=22	=22	=22	=22	=22	=22	=22	=22	=22	=22	=22	=22	=22	=22	=22	=22	=22	=22
*	*	*	*tremolo	*	*	*	*	*	*	*	*	*	*	*	*	*	*
8G\L	6 3_	.	8e-/L	.	.	16dd\LL	.	2r	.	.	.	2r	.	.	2r	.	.
.	.	.	.	.	.	16ee-\J	.	.	.	.	.	.	.	.	.	.	.
8G\	.	.	8e-/	.	.	8.ee-\J	.	.	.	.	.	.	.	.	.	.	.
8G\	.	.	8e-/	.	.	.	.	.	.	.	.	.	.	.	.	.	.
.	.	.	.	.	.	16bb-\LL	.	.	.	.	.	.	.	.	.	.	.
8G\J	.	.	8e-/J	.	.	16gg\	.	.	.	.	.	.	.	.	.	.	.
.	.	.	.	.	.	16ee-\JJ	.	.	.	.	.	.	.	.	.	.	.
*	*	*	*Xtremolo	*	*	*	*	*	*	*	*	*	*	*	*	*	*
=23	=23	=23	=23	=23	=23	=23	=23	=23	=23	=23	=23	=23	=23	=23	=23	=23	=23
8A-\L	5:6_	.	8e-/L	.	.	16bn\LL	.	2r	.	.	.	2r	.	.	2r	.	.
.	.	.	.	.	.	16cc\J	.	.	.	.	.	.	.	.	.	.	.
8A-\	.	.	8e-/	.	.	8.cc\J	.	.	.	.	.	.	.	.	.	.	.
8A-\	.	.	8f/	.	.	.	.	.	.	.	.	.	.	.	.	.	.
.	.	.	.	.	.	16aa-\LL	.	.	.	.	.	.	.	.	.	.	.
8A-\J	.	.	8f/J	.	.	16ff\	.	.	.	.	.	.	.	.	.	.	.
.	.	.	.	.	.	16dd\JJ	.	.	.	.	.	.	.	.	.	.	.
*Xtremolo	*	*	*	*	*	*	*	*	*	*	*	*	*	*	*	*	*
=24	=24	=24	=24	=24	=24	=24	=24	=24	=24	=24	=24	=24	=24	=24	=24	=24	=24
!	!	!	!LO:TX:a:t=P:problem=mixed beam	!	!	!	!	!	!	!	!	!LO:TX:a:t=P:problem=mixed beam	!	!	!	!	!
8G\L	6 2	.	16e-/LL	.	.	16ee-\LL	.	2r	.	.	.	16e-/LL	.	.	16ee-\LL	.	.
.	.	.	32ee-\L	.	.	32gg\L	.	.	.	.	.	32ee-\L	.	.	32gg\L	.	.
!	!	!	!LO:SIC:v:s=32dd\JJJ	!	!	!	!	!	!	!	!	!	!	!	!	!	!
.	.	.	32ee-\JJJ	.	.	32ff\JJJ	.	.	.	.	.	32dd\JJJ	.	.	32ff\JJJ	.	.
16r	.	.	16ee-\LL	.	.	16gg\LL	.	.	.	.	.	16ee-\LL	.	.	16gg\LL	.	.
16e-\Jk	3	.	16ee-\JJ	.	.	16gg\JJ	.	.	.	.	.	16ee-\JJ	.	.	16gg\JJ	.	.
16e-\LL	3	.	16ee-\LL	.	.	16gg\LL	.	.	.	.	.	8ee-\	.	.	8gg\	.	.
16d\	3	.	16dd\	.	.	16ff\	.	.	.	.	.	.	.	.	.	.	.
16c\	3	.	16cc\	.	.	16ee-\	.	.	.	.	.	8r	.	.	8r	.	.
16B-\JJ	3	.	16b-\JJ	.	.	16dd\JJ	.	.	.	.	.	.	.	.	.	.	.
=25	=25	=25	=25	=25	=25	=25	=25	=25	=25	=25	=25	=25	=25	=25	=25	=25	=25
8A-\L	3	.	16a-\LL	.	.	16dd\LL	.	2r	.	.	.	16a-\LL	.	.	16cc\LL	.	.
.	.	.	32cc\L	.	.	32ee-\L	.	.	.	.	.	32cc\L	.	.	32ee-\L	.	.
.	.	.	32b-\JJJ	.	.	32dd\JJJ	.	.	.	.	.	32b-\JJJ	.	.	32dd\JJJ	.	.
16r	3	.	16b-\LL	.	.	16ee-\LL	.	.	.	.	.	16cc\LL	.	.	16ee-\LL	.	.
16c\Jk	3	.	16cc\JJ	.	.	16ee-\JJ	.	.	.	.	.	16cc\JJ	.	.	16ee-\JJ	.	.
!LO:LB:g=original	!	!	!	!	!	!	!	!	!	!	!	!	!	!	!	!	!
16c\LL	3	.	16cc\LL	.	.	16ee-\LL	.	.	.	.	.	8cc\	.	.	8ee-\	.	.
16B-\	3	.	16b-\	.	.	16dd\	.	.	.	.	.	.	.	.	.	.	.
16A-\	3	.	16a-\	.	.	16cc\	.	.	.	.	.	8r	.	.	8r	.	.
16G\JJ	3	.	16g\JJ	.	.	16b-\JJ	.	.	.	.	.	.	.	.	.	.	.
=26	=26	=26	=26	=26	=26	=26	=26	=26	=26	=26	=26	=26	=26	=26	=26	=26	=26
!	!	!	!LO:LB:g=original	!	!	!	!	!	!	!	!	!	!	!	!	!	!
8F\L	.	.	16f/LL	.	.	16a-/LL	.	2r	.	.	.	16f/LL	.	.	16a-\LL	.	.
.	.	.	32a-/L	.	.	32cc/L	.	.	.	.	.	32a-/L	.	.	32cc\L	.	.
.	.	.	32g/JJJ	.	.	32b-/JJJ	.	.	.	.	.	32g/JJJ	.	.	32b-\JJJ	.	.
16r	.	.	16a-/LL	.	.	16cc/LL	.	.	.	.	.	16a-/LL	.	.	16cc\LL	.	.
16A-\Jk	.	.	16a-/JJ	.	.	16cc/JJ	.	.	.	.	.	16a-/JJ	.	.	16cc\JJ	.	.
16A-\LL	.	.	16a-/LL	.	.	16cc/LL	.	.	.	.	.	8a-/	.	.	16cc\LL	.	.
16G\	.	.	16g/	.	.	16b-/	.	.	.	.	.	.	.	.	16b-\	.	.
16F\	.	.	16f/	.	.	16a-/	.	.	.	.	.	8r	.	.	16a-\	.	.
16E-\JJ	.	.	16e-/JJ	.	.	16g/JJ	.	.	.	.	.	.	.	.	16g\JJ	.	.
=27	=27	=27	=27	=27	=27	=27	=27	=27	=27	=27	=27	=27	=27	=27	=27	=27	=27
!	!	!	!	!	!	!LO:LB:g=original	!	!	!	!	!	!	!	!	!	!	!
8D/L	.	.	8d/L	.	.	8f/	.	2r	.	.	.	2r	.	.	2r	.	.
16BB-/L	.	.	16d/L	.	.	4aa-\	.	.	.	.	.	.	.	.	.	.	.
16C/JJ	.	.	16e-/JJ	.	.	.	.	.	.	.	.	.	.	.	.	.	.
8D/L	.	.	8f/L	.	.	.	.	.	.	.	.	.	.	.	.	.	.
8BB-/J	.	.	8A-/J	.	.	16ff\LL	.	.	.	.	.	.	.	.	.	.	.
.	.	.	.	.	.	16ee-\JJ	.	.	.	.	.	.	.	.	.	.	.
=28	=28	=28	=28	=28	=28	=28	=28	=28	=28	=28	=28	=28	=28	=28	=28	=28	=28
!LO:TX:a:t=P:problem=mixed beam	!	!	!	!	!	!	!	!	!	!	!	!	!	!	!	!	!
8E-\L	.	.	8G/L	.	.	16ee-\LL	.	2r	.	.	.	2r	.	.	2r	.	.
.	.	.	.	.	.	16bn\	.	.	.	.	.	.	.	.	.	.	.
8A-\	.	.	16A-/L	.	.	16cc\	.	.	.	.	.	.	.	.	.	.	.
.	.	.	16c/JJ	.	.	16a-\JJ	.	.	.	.	.	.	.	.	.	.	.
8B-\	.	.	8B-/L	.	.	8g/L	.	.	.	.	.	.	.	.	.	.	.
8BB-/J	.	.	8A-/J	.	.	8f/J	.	.	.	.	.	.	.	.	.	.	.
=29	=29	=29	=29	=29	=29	=29	=29	=29	=29	=29	=29	=29	=29	=29	=29	=29	=29
!LO:TX:a:t=P:problem=mixed beam	!	!	!	!	!	!	!	!	!	!	!	!	!	!	!	!	!
8E-\L	.	.	16G/LL	.	.	4e-/	.	2r	.	.	.	16G/LL	.	.	4ee-\	.	.
.	.	.	16B-/	.	.	.	.	.	.	.	.	16B-/	.	.	.	.	.
8G\	.	.	16G/	.	.	.	.	.	.	.	.	16G/	.	.	.	.	.
.	.	.	16B-/JJ	.	.	.	.	.	.	.	.	16B-/JJ	.	.	.	.	.
8B-\	.	.	16A-/LL	.	.	16d/LL	.	.	.	.	.	16A-/LL	.	.	16dd\LL	.	.
.	.	.	16B-/	.	.	16f/	.	.	.	.	.	16B-/	.	.	16ff\	.	.
8BB-/J	.	.	16A-/	.	.	16a-/	.	.	.	.	.	16A-/	.	.	16aa-\	.	.
.	.	.	16B-/JJ	.	.	16d/JJ	.	.	.	.	.	16B-/JJ	.	.	16dd\JJ	.	.
=30	=30	=30	=30	=30	=30	=30	=30	=30	=30	=30	=30	=30	=30	=30	=30	=30	=30
!LO:TX:a:t=P:problem=mixed beam	!	!	!	!	!	!	!	!	!	!	!	!	!	!	!	!	!
8E-\L	.	.	16G/LL	.	.	16f/LL	.	2r	.	.	.	16G/LL	.	.	16ff\LL	.	.
.	.	.	16B-/	.	.	16e-/J	.	.	.	.	.	16B-/	.	.	16ee-\J	.	.
8E-\	.	.	16G/	.	.	8e-/J	.	.	.	.	.	16G/	.	.	8ee-\J	.	.
.	.	.	16B-/JJ	.	.	.	.	.	.	.	.	16B-/JJ	.	.	.	.	.
8B-\	.	.	16A-/LL	.	.	16d/LL	.	.	.	.	.	16A-/LL	.	.	16dd\LL	.	.
.	.	.	16B-/	.	.	16f/	.	.	.	.	.	16B-/	.	.	16ff\	.	.
8BB-/J	.	.	16A-/	.	.	16a-/	.	.	.	.	.	16A-/	.	.	16aa-\	.	.
.	.	.	16B-/JJ	.	.	16d/JJ	.	.	.	.	.	16B-/JJ	.	.	16dd\JJ	.	.
=31	=31	=31	=31	=31	=31	=31	=31	=31	=31	=31	=31	=31	=31	=31	=31	=31	=31
!LO:LB:g=original	!	!	!	!	!	!	!	!	!	!	!	!	!	!	!LO:LB:g=original	!	!
8E-\L	.	.	4A-/	.	.	8.d/L	.	2r	.	.	.	4a-\	.	.	8.dd\L	.	.
8BB-\J	.	.	.	.	.	.	.	.	.	.	.	.	.	.	.	.	.
.	.	.	.	.	.	32e-/LL	.	.	.	.	.	.	.	.	32ee-\LL	.	.
.	.	.	.	.	.	32f/JJJ	.	.	.	.	.	.	.	.	32ff\JJJ	.	.
.	.	.	16qqG/LL	.	.	.	.	.	.	.	.	16qqg/LL	.	.	.	.	.
.	.	.	16qqB-/JJ	.	.	.	.	.	.	.	.	16qqa-/JJ	.	.	.	.	.
8EE-/	.	.	8G/	.	.	8e-/	.	.	.	.	.	8g\	.	.	8ee-\	.	.
8r	.	.	8r	.	.	8r	.	.	.	.	.	8r	.	.	8r	.	.
=32	=32	=32	=32	=32	=32	=32	=32	=32	=32	=32	=32	=32	=32	=32	=32	=32	=32
*tremolo	*	*	*	*	*	*	*	*	*	*	*	*	*	*	*	*	*
!	!	!	!LO:MO:null:mod=!LO&colon;TX&colon;a&colon;i&colon;t=Basso solo	!	!	!LO:MO:null:mod=!LO&colon;TX&colon;a&colon;i&colon;t=Basso solo	!	!	!	!	!	!LO:MO:null:mod=!LO&colon;TX&colon;a&colon;i&colon;t=Basso solo	!	!	!LO:MO:null:mod=!LO&colon;TX&colon;a&colon;i&colon;t=Basso solo	!	!
!LO:TX:a:i:t=Voca&colon; Baſso:mod=Basso solo	!	!	!	!	!	!	!	!	!	!	!	!	!	!	!	!	!
!	!	!	!LO:LB:g=original	!	!	!	!	!	!	!	!	!	!	!	!	!	!
!	!	!	!	!	!LO:MO:null:mod=!LO&colon;DY&colon;ed=brack	!	!LO:MO:null:mod=!LO&colon;DY&colon;ed=brack	!	!	!	!LO:MO:null:mod=!LO&colon;DY&colon;ed=brack	!	!	!LO:MO:null:mod=!LO&colon;DY&colon;ed=brack	!	!	!LO:MO:null:mod=!LO&colon;DY&colon;ed=brack
!	!	!LO:DY:b:t=pp&colon;:mod=	!	!	!	!	!	!	!	!	!	!	!	!	!	!	!
8E-\L	.	pp	4.G/	.	pp	4.e- 4.G/	pp	4.E-\	Sal-	.	pp	4.g/	.	pp	4.ee-\	.	pp
8E-\	.	.	.	.	.	.	.	.	.	.	.	.	.	.	.	.	.
8E-\	.	.	.	.	.	.	.	.	.	.	.	.	.	.	.	.	.
!	!	!	!	!	!	!	!LO:DY:b:t=p.:mod=	!	!	!	!	!	!	!	!	!	!
!	!	!	!	!	!	!	!LO:MO:mod=.	!	!	!	!	!	!	!	!	!	!
8E-\J	.	.	16A-/LL	.	.	16f/LL	p	16F\	-ve	.	.	16a-/LL	.	.	16ff\LL	.	.
.	.	.	16B-/JJ	.	.	16g/JJ	.	16G\	Re-	.	.	16b-/JJ	.	.	16gg\JJ	.	.
=33	=33	=33	=33	=33	=33	=33	=33	=33	=33	=33	=33	=33	=33	=33	=33	=33	=33
.	.	.	.	.	.	8qqg/	.	.	.	.	.	.	.	.	.	.	.
8E-\L	.	.	8A-/L	.	.	8f/L	.	8F\	-gi-	.	.	8a-/L	.	.	8ff\L	.	.
8E-\	.	.	8G/J	.	.	8e-/J	.	8E-\	-na	.	.	8g/J	.	.	8ee-\J	.	.
8E-\	.	.	8r	.	.	8r	.	4r	.	.	.	8r	.	.	8r	.	.
8E-\J	.	.	8B-/	.	.	8g/	.	.	.	.	.	8b-\	.	.	8gg\	.	.
=34	=34	=34	=34	=34	=34	=34	=34	=34	=34	=34	=34	=34	=34	=34	=34	=34	=34
!	!	!	!	!	!	!LO:LB:g=original	!	!	!	!	!	!	!	!	!	!	!
8E-\L	.	.	8A-/L	.	.	8f/L	.	8BB-/	Sal-	.	.	8a-\L	.	.	8ff\L	.	.
8E-\	.	.	8G/J	.	.	8e-/J	.	8E-\	-ve	.	.	8g\J	.	.	8ee-\J	.	.
8E-\	.	.	4r	.	.	4r	.	4r	.	.	.	4r	.	.	4r	.	.
8E-\J	.	.	.	.	.	.	.	.	.	.	.	.	.	.	.	.	.
=35	=35	=35	=35	=35	=35	=35	=35	=35	=35	=35	=35	=35	=35	=35	=35	=35	=35
8BB-/L	.	.	4.d/	.	.	4.f 4.B-/	.	4.F\	Sal-	.	.	4.dd\	.	.	4.ff\	.	.
8BB-/	.	.	.	.	.	.	.	.	.	.	.	.	.	.	.	.	.
8BB-/	.	.	.	.	.	.	.	.	.	.	.	.	.	.	.	.	.
8BB-/J	.	.	16e-/LL	.	.	16g/LL	.	16G\	-ve	.	.	16ee-\LL	.	.	16gg\LL	.	.
.	.	.	16f/JJ	.	.	16a-/JJ	.	16A-\	Re-	.	.	16ff\JJ	.	.	16aa-\JJ	.	.
=36	=36	=36	=36	=36	=36	=36	=36	=36	=36	=36	=36	=36	=36	=36	=36	=36	=36
.	.	.	.	.	.	8qqa-/	.	.	.	.	.	.	.	.	8qqaa-/	.	.
8BB-/L	.	.	8e-/L	.	.	8g/L	.	8G\	-gi-	.	.	8ee-\L	.	.	8gg\L	.	.
8BB-/	.	.	8d/J	.	.	8f/J	.	8F\	-na	.	.	8dd\J	.	.	8ff\J	.	.
8BB-/	.	.	8r	.	.	8r	.	4r	.	.	.	8r	.	.	8r	.	.
8BB-/J	.	.	8f/	.	.	8a-/	.	.	.	.	.	8ff\	.	.	8aa-\	.	.
=37	=37	=37	=37	=37	=37	=37	=37	=37	=37	=37	=37	=37	=37	=37	=37	=37	=37
!	!	!	!	!	!	!	!	!LO:LB:g=original	!	!	!	!	!	!	!	!	!
.	.	.	8qqf/	.	.	8qqa-/	.	.	.	.	.	8qqff/	.	.	.	.	.
8BB-/L	.	.	8e-/L	.	.	8g/L	.	8E-\	Sal-	.	.	8ee-\L	.	.	8gg\L	.	.
8BB-/	.	.	8d/J	.	.	8f/J	.	8BB-/	-ve	.	.	8dd\J	.	.	8ff\J	.	.
8BB-/	.	.	4r	.	.	4r	.	4r	.	.	.	4r	.	.	4r	.	.
8BB-/J	.	.	.	.	.	.	.	.	.	.	.	.	.	.	.	.	.
*Xtremolo	*	*	*	*	*	*	*	*	*	*	*	*	*	*	*	*	*
=38	=38	=38	=38	=38	=38	=38	=38	=38	=38	=38	=38	=38	=38	=38	=38	=38	=38
!	!	!	!	!	!	!	!	!	!	!	!	!LO:LB:g=original	!	!	!	!	!
4E-\	.	.	16g/LL	.	.	16e-/LL	.	2r	.	.	.	2r	.	.	2r	.	.
.	.	.	16b-/	.	.	32g/L	.	.	.	.	.	.	.	.	.	.	.
.	.	.	.	.	.	32b-/JJJ	.	.	.	.	.	.	.	.	.	.	.
.	.	.	16g/	.	.	16ee-\LL	.	.	.	.	.	.	.	.	.	.	.
.	.	.	16b-/JJ	.	.	16gg\JJ	.	.	.	.	.	.	.	.	.	.	.
*	*	*	*rep	*	*	*	*	*	*	*	*	*	*	*	*	*	*
8r	.	.	16g/LL	.	.	4bb-\	.	.	.	.	.	.	.	.	.	.	.
.	.	.	16b-/	.	.	.	.	.	.	.	.	.	.	.	.	.	.
8E-\	.	.	16g/	.	.	.	.	.	.	.	.	.	.	.	.	.	.
.	.	.	16b-/JJ	.	.	.	.	.	.	.	.	.	.	.	.	.	.
*	*	*	*Xrep	*	*	*	*	*	*	*	*	*	*	*	*	*	*
=39	=39	=39	=39	=39	=39	=39	=39	=39	=39	=39	=39	=39	=39	=39	=39	=39	=39
8D\L	.	.	16f/LL	.	.	16aa-\LL	.	2r	.	.	.	2r	.	.	2r	.	.
.	.	.	16b-/	.	.	32ff\L	.	.	.	.	.	.	.	.	.	.	.
.	.	.	.	.	.	32dd\JJJ	.	.	.	.	.	.	.	.	.	.	.
8F\	.	.	16a-/	.	.	16cc\LL	.	.	.	.	.	.	.	.	.	.	.
.	.	.	16b-/JJ	.	.	16a-\JJ	.	.	.	.	.	.	.	.	.	.	.
8BB-\	.	.	16a-/LL	.	.	4f/	.	.	.	.	.	.	.	.	.	.	.
.	.	.	16b-/	.	.	.	.	.	.	.	.	.	.	.	.	.	.
8D\J	.	.	16a-/	.	.	.	.	.	.	.	.	.	.	.	.	.	.
.	.	.	16b-/JJ	.	.	.	.	.	.	.	.	.	.	.	.	.	.
=40	=40	=40	=40	=40	=40	=40	=40	=40	=40	=40	=40	=40	=40	=40	=40	=40	=40
!	!	!	!LO:LB:g=original	!	!	!	!	!	!	!	!	!	!	!	!	!	!
4E-\	.	.	16g/LL	.	.	16e-/LL	.	4r	.	.	.	2r	.	.	2r	.	.
.	.	.	16b-/	.	.	32g/L	.	.	.	.	.	.	.	.	.	.	.
.	.	.	.	.	.	32b-/JJJ	.	.	.	.	.	.	.	.	.	.	.
.	.	.	16g/	.	.	16ee-\LL	.	.	.	.	.	.	.	.	.	.	.
.	.	.	16b-/JJ	.	.	16gg\JJ	.	.	.	.	.	.	.	.	.	.	.
*	*	*	*rep	*	*	*	*	*	*	*	*	*	*	*	*	*	*
8r	.	.	16g/LL	.	.	4bb-\	.	4B-\	Re-	.	.	.	.	.	.	.	.
.	.	.	16b-/	.	.	.	.	.	.	.	.	.	.	.	.	.	.
8E-\	.	.	16g/	.	.	.	.	.	.	.	.	.	.	.	.	.	.
.	.	.	16b-/JJ	.	.	.	.	.	.	.	.	.	.	.	.	.	.
*	*	*	*Xrep	*	*	*	*	*	*	*	*	*	*	*	*	*	*
=41	=41	=41	=41	=41	=41	=41	=41	=41	=41	=41	=41	=41	=41	=41	=41	=41	=41
!LO:LB:g=original	!	!	!	!	!	!	!	!	!	!	!	!	!	!	!	!	!
8D\L	.	.	16f/LL	.	.	16aa-\LL	.	2B-\	-gi-	.	.	2r	.	.	2r	.	.
.	.	.	16b-/	.	.	32ff\L	.	.	.	.	.	.	.	.	.	.	.
.	.	.	.	.	.	32dd\JJJ	.	.	.	.	.	.	.	.	.	.	.
!	!	!	!	!	!	!LO:LB:g=original	!	!	!	!	!	!	!	!	!	!	!
8F\	.	.	16a-/	.	.	16cc\LL	.	.	.	.	.	.	.	.	.	.	.
.	.	.	16b-/JJ	.	.	16a-\JJ	.	.	.	.	.	.	.	.	.	.	.
8BB-\	.	.	16a-/LL	.	.	4f/	.	.	.	.	.	.	.	.	.	.	.
.	.	.	16b-/	.	.	.	.	.	.	.	.	.	.	.	.	.	.
8D\J	.	.	16a-/	.	.	.	.	.	.	.	.	.	.	.	.	.	.
.	.	.	16b-/JJ	.	.	.	.	.	.	.	.	.	.	.	.	.	.
=42	=42	=42	=42	=42	=42	=42	=42	=42	=42	=42	=42	=42	=42	=42	=42	=42	=42
!	!	!	!	!	!	!LO:TX:a:t=P:problem=mixed beam	!	!	!	!	!	!	!	!	!LO:TX:a:t=P:problem=mixed beam	!	!
8E-\L	.	.	8g/L	.	.	8e-/L	.	8E-\	-na	.	.	8e-/L	.	.	8e-/L	.	.
8E-\	.	.	8g/	.	.	8ee-\	.	8e-\	Ma-	.	.	8g/	.	.	8ee-\	.	.
8F\	.	.	8a-/	.	.	8ee-\	.	8e-\	-ter	.	.	8a-/	.	.	8ee-\	.	.
8G\J	.	.	8b-/J	.	.	8ee-\J	.	8e-\	mi-	.	.	8b-/J	.	.	8ee-\J	.	.
=43	=43	=43	=43	=43	=43	=43	=43	=43	=43	=43	=43	=43	=43	=43	=43	=43	=43
.	.	.	8qqcc/	.	.	8qqee-/	.	8qqe-/	.	.	.	.	.	.	.	.	.
4A-\	.	.	8b-\L	.	.	8dd\L	.	8d\L	-se-	.	.	2r	.	.	2r	.	.
.	.	.	16a-\L	.	.	16cc\L	.	16c\L	-ri	.	.	.	.	.	.	.	.
.	.	.	16g\JJ	.	.	16b-\JJ	.	16B-\JJ	.	.	.	.	.	.	.	.	.
!LO:TX:a:t=P:problem=mixed beam	!	!	!	!	!	!	!	!	!	!	!	!	!	!	!	!	!
.	.	.	8qqg/	.	.	8qqb-/	.	8qqB-/	.	.	.	.	.	.	.	.	.
8B-\L	.	.	8f/L	.	.	8a-/L	.	8A-\L	Cor-	.	.	.	.	.	.	.	.
8BB-/J	.	.	16e-/L	.	.	16g/L	.	16G\L	-di-	.	.	.	.	.	.	.	.
.	.	.	16d/JJ	.	.	16f/JJ	.	16F\JJ	.	.	.	.	.	.	.	.	.
=44	=44	=44	=44	=44	=44	=44	=44	=44	=44	=44	=44	=44	=44	=44	=44	=44	=44
!	!	!	!	!	!	!LO:TX:a:t=P:problem=mixed beam	!	!	!	!	!	!	!	!	!LO:TX:a:t=P:problem=mixed beam	!	!
8E-\L	.	.	8e-/L	.	.	8e-/L	.	8E-\	-e	.	.	8e-/L	.	.	8e-/L	.	.
8E-\	.	.	8g/	.	.	8ee-\	.	8e-\	vi-	.	.	8g/	.	.	8ee-\	.	.
8F\	.	.	8a-/	.	.	8ee-\	.	8e-\	-ta	.	.	8a-/	.	.	8ee-\	.	.
8G\J	.	.	8b-/J	.	.	8ee-\J	.	8e-\	dul-	.	.	8b-/J	.	.	8ee-\J	.	.
=45	=45	=45	=45	=45	=45	=45	=45	=45	=45	=45	=45	=45	=45	=45	=45	=45	=45
!	!	!	!	!	!	!	!	!	!	!	!	!	!	!	!LO:LB:g=original	!	!
.	.	.	8qqcc/	.	.	8qqee-/	.	8qqe-/	.	.	.	.	.	.	.	.	.
4A-\	.	.	8b-/L	.	.	8dd\L	.	8d\L	-ce-	.	.	2r	.	.	2r	.	.
.	.	.	16a-/L	.	.	16cc\L	.	16c\L	.	.	.	.	.	.	.	.	.
.	.	.	16g/JJ	.	.	16b-\JJ	.	16B-\JJ	.	.	.	.	.	.	.	.	.
!LO:TX:a:t=P:problem=mixed beam	!	!	!	!	!	!	!	!	!	!	!	!	!	!	!	!	!
!	!	!	!	!	!	!	!	!LO:LB:g=original	!	!	!	!	!	!	!	!	!
.	.	.	8qqg/	.	.	8qqb-/	.	8qqB-/	.	.	.	.	.	.	.	.	.
8B-\L	.	.	8f/L	.	.	8a-/L	.	8A-\L	.	.	.	.	.	.	.	.	.
8BB-/J	.	.	16e-/L	.	.	16g/L	.	16G\L	-do	.	.	.	.	.	.	.	.
.	.	.	16d/JJ	.	.	16f/JJ	.	16F\JJ	.	.	.	.	.	.	.	.	.
=46	=46	=46	=46	=46	=46	=46	=46	=46	=46	=46	=46	=46	=46	=46	=46	=46	=46
*tremolo	*	*	*	*	*	*	*	*	*	*	*	*	*	*	*	*	*
!	!	!	!	!	!	!LO:TX:a:t=P:problem=mixed beam	!	!	!	!	!	!	!	!	!	!	!
8E-\L	.	.	8e-/L	.	.	8e-/L	.	4E-\	et	.	.	2r	.	.	2r	.	.
8E-\	.	.	8b-/	.	.	8gg\	.	.	.	.	.	.	.	.	.	.	.
8E-\	.	.	8b-/	.	.	8gg\	.	8g\	.	.	.	.	.	.	.	.	.
8E-\J	.	.	8b-/J	.	.	8gg\J	.	8g\	spes	.	.	.	.	.	.	.	.
=47	=47	=47	=47	=47	=47	=47	=47	=47	=47	=47	=47	=47	=47	=47	=47	=47	=47
*	*	*	*	*	*	*Xtuplet	*	*	*	*	*	*	*	*	*	*	*
!	!	!	!LO:LB:g=original	!	!	!	!	!	!	!	!	!	!	!	!	!	!
8D\L	.	.	8b-/L	.	.	24ff\LL	.	4f\	no-	.	.	2r	.	.	2r	.	.
.	.	.	.	.	.	24dd\	.	.	.	.	.	.	.	.	.	.	.
.	.	.	.	.	.	24b-\JJ	.	.	.	.	.	.	.	.	.	.	.
8D\	.	.	8f/	.	.	16b-\LL	.	.	.	.	.	.	.	.	.	.	.
.	.	.	.	.	.	16b-\JJ	.	.	.	.	.	.	.	.	.	.	.
8D\	.	.	8f/	.	.	4b-\	.	4D/	-stra	.	.	.	.	.	.	.	.
8D\J	.	.	8f/J	.	.	.	.	.	.	.	.	.	.	.	.	.	.
*Xtremolo	*	*	*	*	*	*	*	*	*	*	*	*	*	*	*	*	*
=48	=48	=48	=48	=48	=48	=48	=48	=48	=48	=48	=48	=48	=48	=48	=48	=48	=48
8r	.	.	8r	.	.	8r	.	4C/	.	.	.	2r	.	.	2r	.	.
!	!	!	!	!	!	!LO:TX:a:t=P:problem=mixed beam	!	!	!	!	!	!	!	!	!	!	!
8C/L	.	.	8g/L	.	.	8c/L	.	.	.	.	.	.	.	.	.	.	.
8C/	.	.	8g/	.	.	8ee-\	.	8e-\	et	.	.	.	.	.	.	.	.
8C/J	.	.	8g/J	.	.	8ee-\J	.	8e-\	spes	.	.	.	.	.	.	.	.
=49	=49	=49	=49	=49	=49	=49	=49	=49	=49	=49	=49	=49	=49	=49	=49	=49	=49
*tremolo	*	*	*	*	*	*tuplet	*	*	*	*	*	*	*	*	*	*	*
!LO:LB:g=original	!	!	!	!	!	!LO:LB:g=original	!	!	!	!	!	!	!	!	!	!	!
!	!	!	!	!	!	!LO:TUP:b:problem=klamra łukowa, numer	!	!	!	!	!	!	!	!	!	!	!
8C/L	.	.	8g/L	.	.	24dd/LL	.	4d\	nos-	.	.	2r	.	.	2r	.	.
.	.	.	.	.	.	24b-/	.	.	.	.	.	.	.	.	.	.	.
.	.	.	.	.	.	24g/JJ	.	.	.	.	.	.	.	.	.	.	.
8C/	.	.	8d/	.	.	16g/LL	.	.	.	.	.	.	.	.	.	.	.
.	.	.	.	.	.	16g/JJ	.	.	.	.	.	.	.	.	.	.	.
8C/	.	.	8d/	.	.	4g/	.	4BB-/	-tra	.	.	.	.	.	.	.	.
8C/J	.	.	8d/J	.	.	.	.	.	.	.	.	.	.	.	.	.	.
*Xtremolo	*	*	*	*	*	*	*	*	*	*	*	*	*	*	*	*	*
=50	=50	=50	=50	=50	=50	=50	=50	=50	=50	=50	=50	=50	=50	=50	=50	=50	=50
8r	.	.	8r	.	.	8r	.	4AA-/	.	.	.	2r	.	.	2r	.	.
!LO:TX:a:t=P:problem=mixed beam	!	!	!	!	!	!LO:TX:a:t=P:problem=mixed beam	!	!	!	!	!	!	!	!	!	!	!
8AA-/L	.	.	8e-/L	.	.	8A-/L	.	.	.	.	.	.	.	.	.	.	.
8A-\	.	.	8e-/	.	.	8cc\	.	8c\	et	.	.	.	.	.	.	.	.
8A-\J	.	.	8e-/J	.	.	8cc\J	.	8c\	spes-	.	.	.	.	.	.	.	.
=51	=51	=51	=51	=51	=51	=51	=51	=51	=51	=51	=51	=51	=51	=51	=51	=51	=51
8r	.	.	8.g/L	.	.	8.b-/L	.	8.B-\L	-nos-	.	.	8.gg\L	.	.	8.bb-\L	.	.
8E-\L	.	.	.	.	.	.	.	.	.	.	.	.	.	.	.	.	.
.	.	.	16G/Jk	.	.	16g/Jk	.	16G\Jk	.	.	.	16ee-\Jk	.	.	16gg\Jk	.	.
8E-\	.	.	8G/	.	.	8e-/	.	8E-\	-tra	.	.	8g/	.	.	8ee-\	.	.
8E-\J	.	.	8r	.	.	8r	.	8r	.	.	.	8r	.	.	8r	.	.
=52	=52	=52	=52	=52	=52	=52	=52	=52	=52	=52	=52	=52	=52	=52	=52	=52	=52
8r	.	.	16B-/LL	.	.	16d/LL	.	16D\LL	.	.	.	16.b-\LL	.	.	16dd\LL	.	.
.	.	.	16d/JJ	.	.	16f/JJ	.	16F\JJ	.	.	.	.	.	.	16ff\JJ	.	.
.	.	.	.	.	.	.	.	.	.	.	.	32dd\JJk	.	.	.	.	.
8D/L	.	.	4f/	.	.	4a-/	.	4A-\	Sal-	.	.	4ff\	.	.	4aa-\	.	.
8BB-/	.	.	.	.	.	.	.	.	.	.	.	.	.	.	.	.	.
8E-/J	.	.	8e-/	.	.	8g/	.	8G\	-ve	.	.	8ee-\	.	.	8gg\	.	.
=53	=53	=53	=53	=53	=53	=53	=53	=53	=53	=53	=53	=53	=53	=53	=53	=53	=53
!LO:TX:a:t=P:problem=mixed beam	!	!	!	!	!	!	!	!	!	!	!	!	!	!	!	!	!
8B-\L	.	.	4e-/	.	.	4g/	.	4G\	Sal-	.	.	4ee-T\	.	.	4ggt\	.	.
8BB-/	.	.	.	.	.	.	.	.	.	.	.	.	.	.	.	.	.
8B-\J	.	.	8d/	.	.	8f/	.	8F\	-ve	.	.	8dd\	.	.	8ff\	.	.
8r	.	.	8r	.	.	8r	.	8r	.	.	.	8r	.	.	8r	.	.
=54	=54	=54	=54	=54	=54	=54	=54	=54	=54	=54	=54	=54	=54	=54	=54	=54	=54
2r	.	.	8r	.	.	8r	.	4B-\	ad	.	.	2r	.	.	2r	.	.
.	.	.	8B-/L	.	.	8B-/L	.	.	.	.	.	.	.	.	.	.	.
.	.	.	8d/	.	.	8d/	.	8B-\	te	.	.	.	.	.	.	.	.
.	.	.	8f/J	.	.	8f/J	.	8B-\	Cla-	.	.	.	.	.	.	.	.
=55	=55	=55	=55	=55	=55	=55	=55	=55	=55	=55	=55	=55	=55	=55	=55	=55	=55
2r	.	.	8b-/L	.	.	8b-/L	.	4B-\	-ma-	.	.	2r	.	.	2r	.	.
.	.	.	8f/	.	.	8f/	.	.	.	.	.	.	.	.	.	.	.
.	.	.	8d/	.	.	8d/	.	4BB-/	-mus	.	.	.	.	.	.	.	.
.	.	.	8f/J	.	.	8f/J	.	.	.	.	.	.	.	.	.	.	.
=56	=56	=56	=56	=56	=56	=56	=56	=56	=56	=56	=56	=56	=56	=56	=56	=56	=56
!	!	!	!LO:LB:g=original	!	!	!	!	!	!	!	!	!	!	!	!	!	!
2r	.	.	8r	.	.	8r	.	8B-\	E-	.	.	2r	.	.	2r	.	.
.	.	.	8B-/L	.	.	8B-/L	.	16B-\	-xu-	.	.	.	.	.	.	.	.
.	.	.	.	.	.	.	.	16B-\	-les	.	.	.	.	.	.	.	.
.	.	.	8d/	.	.	8d/	.	8B-\	fi-	.	.	.	.	.	.	.	.
.	.	.	8f/J	.	.	8f/J	.	16B-\	-li-	.	.	.	.	.	.	.	.
.	.	.	.	.	.	.	.	16B-\	-i	.	.	.	.	.	.	.	.
=57	=57	=57	=57	=57	=57	=57	=57	=57	=57	=57	=57	=57	=57	=57	=57	=57	=57
!	!	!	!	!	!	!LO:LB:g=original	!	!	!	!	!	!	!	!	!	!	!
2r	.	.	8b-/L	.	.	8b-/L	.	4B-\	e-	.	.	2r	.	.	2r	.	.
.	.	.	8f/J	.	.	8f/J	.	.	.	.	.	.	.	.	.	.	.
.	.	.	4B-/	.	.	4B-/	.	4BB-/	-ve	.	.	.	.	.	.	.	.
=58	=58	=58	=58	=58	=58	=58	=58	=58	=58	=58	=58	=58	=58	=58	=58	=58	=58
*tremolo	*	*	*tremolo	*	*	*	*	*	*	*	*	*tremolo	*	*	*	*	*
!	!	!	!	!	!	!	!	!LO:LB:g=original	!	!	!	!	!	!	!	!	!
8B-\L	.	.	8b-\L	.	.	4b-\	.	2r	.	.	.	8b-\L	.	.	4b-\	.	.
8B-\	.	.	8b-\	.	.	.	.	.	.	.	.	8b-\	.	.	.	.	.
8B-\	.	.	8b-\	.	.	16cc\LL	.	.	.	.	.	8b-\	.	.	16cc\LL	.	.
.	.	.	.	.	.	16bn\	.	.	.	.	.	.	.	.	16bX\	.	.
!	!	!	!	!	!	!LO:SIC:v:s=16a\	!	!	!	!	!	!	!	!	!	!	!
8B-\J	.	.	8b-\J	.	.	16a#X\	.	.	.	.	.	8b-\J	.	.	16a\	.	.
.	.	.	.	.	.	16b\JJ	.	.	.	.	.	.	.	.	16b\JJ	.	.
=59	=59	=59	=59	=59	=59	=59	=59	=59	=59	=59	=59	=59	=59	=59	=59	=59	=59
8B-\L	4:5 2	.	8an\L	.	.	8.cc\L	.	2r	.	.	.	8a-X\L	.	.	8.cc\L	.	.
8B-\	.	.	8a\	.	.	.	.	.	.	.	.	8a-\	.	.	.	.	.
.	.	.	.	.	.	16dd\Jk	.	.	.	.	.	.	.	.	16dd\Jk	.	.
8B-\	.	.	8a\	.	.	8cc\	.	.	.	.	.	8a-\	.	.	8cc\	.	.
8B-\J	.	.	8a\J	.	.	8r	.	.	.	.	.	8a-\J	.	.	8r	.	.
*	*	*	*	*	*	*	*	*	*	*	*	*Xtremolo	*	*	*	*	*
=60	=60	=60	=60	=60	=60	=60	=60	=60	=60	=60	=60	=60	=60	=60	=60	=60	=60
8B-\L	2 7-	.	8a-X/L	.	.	4dd\	.	8.d\	ad	.	.	4b-\	.	.	4dd\	.	.
8B-\	.	.	8a-/	.	.	.	.	.	.	.	.	.	.	.	.	.	.
.	.	.	.	.	.	.	.	16d\	te	.	.	.	.	.	.	.	.
8B-\	.	.	8a-/	.	.	16ee-\LL	.	8d\	Sus-	.	.	16cc\LL	.	.	16ee-\LL	.	.
.	.	.	.	.	.	16dd\	.	.	.	.	.	16b-\	.	.	16dd\	.	.
8B-\J	.	.	8a-/J	.	.	16cc\	.	8d\	-pi-	.	.	16a-\	.	.	16cc\	.	.
.	.	.	.	.	.	16dd\JJ	.	.	.	.	.	16b-\JJ	.	.	16dd\JJ	.	.
=61	=61	=61	=61	=61	=61	=61	=61	=61	=61	=61	=61	=61	=61	=61	=61	=61	=61
!LO:LB:g=original	!	!	!	!	!	!	!	!	!	!	!	!LO:LB:g=original	!	!	!	!	!
8B-\L	4 6	.	8g/L	.	.	8.ee-\L	.	4e-\	-ra-	.	.	8.g/L	.	.	8.ee-\L	.	.
8B-\	.	.	8g/	.	.	.	.	.	.	.	.	.	.	.	.	.	.
.	.	.	.	.	.	16ff\Jk	.	.	.	.	.	16a-/Jk	.	.	16ff\Jk	.	.
8B-\	.	.	8g/	.	.	8ee-\	.	4E-\	.	.	.	8g/	.	.	8ee-\	.	.
8B-\J	.	.	8g/J	.	.	8r	.	.	.	.	.	8r	.	.	8r	.	.
*Xtremolo	*	*	*Xtremolo	*	*	*	*	*	*	*	*	*	*	*	*	*	*
=62	=62	=62	=62	=62	=62	=62	=62	=62	=62	=62	=62	=62	=62	=62	=62	=62	=62
8B-\	5 3	.	4f/	.	.	16dd\LL	.	4BB-/	-mus	.	.	2r	.	.	2r	.	.
.	.	.	.	.	.	16ff\	.	.	.	.	.	.	.	.	.	.	.
8r	.	.	.	.	.	16bb-\	.	.	.	.	.	.	.	.	.	.	.
.	.	.	.	.	.	16ff\JJ	.	.	.	.	.	.	.	.	.	.	.
8BB-/	.	.	16r	.	.	4ffT\	.	16r	.	.	.	.	.	.	.	.	.
.	.	.	16f/LL	.	.	.	.	16d\LL	ge-	.	.	.	.	.	.	.	.
8r	.	.	16e-/	.	.	.	.	16c\	.	.	.	.	.	.	.	.	.
.	.	.	16d/JJ	.	.	.	.	16B-\JJ	.	.	.	.	.	.	.	.	.
=63	=63	=63	=63	=63	=63	=63	=63	=63	=63	=63	=63	=63	=63	=63	=63	=63	=63
8F\	.	.	4c/	.	.	16dd-X\LL	.	4An\	.	.	.	2r	.	.	2r	.	.
.	.	.	.	.	.	16ff\	.	.	.	.	.	.	.	.	.	.	.
8r	.	.	.	.	.	16bb-\	.	.	.	.	.	.	.	.	.	.	.
.	.	.	.	.	.	16ff\JJ	.	.	.	.	.	.	.	.	.	.	.
8FF/	.	.	16r	.	.	4ffT\	.	16r	.	.	.	.	.	.	.	.	.
.	.	.	16An/LL	.	.	.	.	16F\LL	-men-	.	.	.	.	.	.	.	.
8r	.	.	16B-/	.	.	.	.	16G\	.	.	.	.	.	.	.	.	.
.	.	.	16c/JJ	.	.	.	.	16A\JJ	.	.	.	.	.	.	.	.	.
=64	=64	=64	=64	=64	=64	=64	=64	=64	=64	=64	=64	=64	=64	=64	=64	=64	=64
8BB-/	-	.	4d-X/	.	.	16b-\LL	.	4B-\	-tes	.	.	2r	.	.	2r	.	.
.	.	.	.	.	.	16ff\	.	.	.	.	.	.	.	.	.	.	.
8r	.	.	.	.	.	16aa-\	.	.	.	.	.	.	.	.	.	.	.
.	.	.	.	.	.	16ff\JJ	.	.	.	.	.	.	.	.	.	.	.
8B-\	.	.	16r	.	.	4ffT\	.	16r	.	.	.	.	.	.	.	.	.
.	.	.	16f/LL	.	.	.	.	16d-X\LL	et	.	.	.	.	.	.	.	.
8r	.	.	16e-/	.	.	.	.	16c\	.	.	.	.	.	.	.	.	.
.	.	.	16d-/JJ	.	.	.	.	16B-\JJ	.	.	.	.	.	.	.	.	.
=65	=65	=65	=65	=65	=65	=65	=65	=65	=65	=65	=65	=65	=65	=65	=65	=65	=65
!	!	!	!	!	!	!LO:LB:g=original	!	!	!	!	!	!	!	!	!	!	!
8F\	.	.	4c/	.	.	16b-\LL	.	4An\	flen-	.	.	2r	.	.	2r	.	.
.	.	.	.	.	.	16ff\	.	.	.	.	.	.	.	.	.	.	.
8r	.	.	.	.	.	16aa-\	.	.	.	.	.	.	.	.	.	.	.
.	.	.	.	.	.	16ff\JJ	.	.	.	.	.	.	.	.	.	.	.
8FF/	.	.	16r	.	.	4ffT\	.	16r	.	.	.	.	.	.	.	.	.
.	.	.	16A-/LL	.	.	.	.	16F\LL	.	.	.	.	.	.	.	.	.
8r	.	.	16B-/	.	.	.	.	16G\	.	.	.	.	.	.	.	.	.
.	.	.	16c/JJ	.	.	.	.	16A\JJ	.	.	.	.	.	.	.	.	.
=66	=66	=66	=66	=66	=66	=66	=66	=66	=66	=66	=66	=66	=66	=66	=66	=66	=66
!	!	!	!	!	!	!	!	!LO:SIC:v:s=8qqA/	!	!	!	!	!	!	!	!	!
!	!	!	!	!	!	!	!	!	!	!	!	!	!	!	!LO:LB:g=original	!	!
!	!	!	!LO:LB:g=original	!	!	!	!	!	!	!	!	!	!	!	!	!	!
.	.	.	8qqd/	.	.	8qqee-/	.	8qqA-/	.	.	.	8qqd/	.	.	8qqee-/	.	.
4BB-/	n	.	4b-\	.	.	4dd\	.	4B-\	-tes	.	.	4b-\	.	.	4dd\	.	.
!	!	!LO:MO:null:mod=!LO&colon;DY&colon;ed=brack	!	!	!LO:MO:null:mod=!LO&colon;DY&colon;ed=brack	!	!	!	!	!	!	!	!	!LO:MO:null:mod=!LO&colon;DY&colon;ed=brack	!	!	!LO:MO:null:mod=!LO&colon;DY&colon;ed=brack
!	!	!	!	!	!	!	!LO:DY:b:t=f.:mod=	!	!	!	!	!	!	!	!	!	!
4r	.	f	8an\L	.	f	8cc\L	f	4r	.	.	.	8a\L	.	f	8cc\L	.	f
.	.	.	8b-\J	.	.	8dd\J	.	.	.	.	.	8b-\J	.	.	8dd\J	.	.
=67	=67	=67	=67	=67	=67	=67	=67	=67	=67	=67	=67	=67	=67	=67	=67	=67	=67
!	!	!	!	!	!	!	!	!LO:LB:g=original	!	!	!	!	!	!	!	!	!
.	.	.	8qqdd/	.	.	8qqff/	.	.	.	.	.	8qqdd/	.	.	8qqff/	.	.
4F\	.	.	4cc\	.	.	4ee-\	.	2r	.	.	.	4cc\	.	.	4ee-\	.	.
4r	.	.	8b-\L	.	.	8dd\L	.	.	.	.	.	8b-\L	.	.	8dd\L	.	.
.	.	.	8cc\J	.	.	8ee-\J	.	.	.	.	.	8cc\J	.	.	8ee-\J	.	.
=68	=68	=68	=68	=68	=68	=68	=68	=68	=68	=68	=68	=68	=68	=68	=68	=68	=68
8B-\	.	.	8dd\L	.	.	8ff\L	.	2r	.	.	.	8dd\L	.	.	8ff\L	.	.
8r	.	.	16ee-\L	.	.	16gg\L	.	.	.	.	.	16ee-\L	.	.	16gg\L	.	.
.	.	.	16dd\JJ	.	.	16ff\JJ	.	.	.	.	.	16dd\JJ	.	.	16ff\JJ	.	.
8BB-/	.	.	16dd\LL	.	.	16ff\LL	.	.	.	.	.	16dd\LL	.	.	16ff\LL	.	.
.	.	.	16cc\	.	.	16ee-\	.	.	.	.	.	16cc\	.	.	16ee-\	.	.
8r	.	.	16cc\	.	.	16ee-\	.	.	.	.	.	16cc\	.	.	16ee-\	.	.
.	.	.	16b-\JJ	.	.	16dd\JJ	.	.	.	.	.	16b-\JJ	.	.	16dd\JJ	.	.
=69	=69	=69	=69	=69	=69	=69	=69	=69	=69	=69	=69	=69	=69	=69	=69	=69	=69
!LO:LB:g=original	!	!	!	!	!	!	!	!	!	!	!	!	!	!	!	!	!
!LO:TX:a:t=P:problem=mixed beam	!	!	!	!	!	!	!	!	!	!	!	!	!	!	!	!	!
8F\L	.	.	8b-/L	.	.	8dd\L	.	4r	.	.	.	8b-\L	.	.	8dd\L	.	.
8FF/J	.	.	8an/J	.	.	8cc\J	.	.	.	.	.	8a\J	.	.	8cc\J	.	.
!	!	!	!	!	!	!	!	!	!	!	!LO:MO:null:mod=!LO&colon;DY&colon;ed=brack	!	!	!	!	!	!
!	!	!	!	!	!	!	!	!	!	!	!	!	!	!	!	!	!
4r	.	.	8r	.	.	8r	.	8F\	in	.	f	8r	.	.	8r	.	.
.	.	.	8f/	.	.	8f/	.	8F\	chac	.	.	8f/	.	.	8f/	.	.
=70	=70	=70	=70	=70	=70	=70	=70	=70	=70	=70	=70	=70	=70	=70	=70	=70	=70
*tremolo	*	*	*	*	*	*	*	*	*	*	*	*	*	*	*	*	*
.	.	.	8qqcc/	.	.	8qqee-/	.	8qqA-/	.	.	.	8qqcc/	.	.	8qqee-/	.	.
8B-\L	.	.	4b-\	.	.	4dd\	.	4B-\	la-	.	.	4b-\	.	.	4dd\	.	.
8B-\	.	.	.	.	.	.	.	.	.	.	.	.	.	.	.	.	.
8B-\	.	.	8an\L	.	.	8cc\L	.	8A-\L	.	.	.	8a\L	.	.	8cc\L	.	.
8B-\J	.	.	8b-\J	.	.	8dd\J	.	8B-\J	.	.	.	8b-\J	.	.	8dd\J	.	.
=71	=71	=71	=71	=71	=71	=71	=71	=71	=71	=71	=71	=71	=71	=71	=71	=71	=71
.	.	.	.	.	.	.	.	.	.	.	.	.	.	.	16qqff/LL	.	.
.	.	.	8qqdd/	.	.	8qqff/	.	8qqd/	.	.	.	8qqdd/	.	.	16qqdd/JJ	.	.
8B-\L	4:n 2	.	4cc\	.	.	4ee-\	.	4c\	-chri-	.	.	4cc\	.	.	4ee-\	.	.
8B-\	.	.	.	.	.	.	.	.	.	.	.	.	.	.	.	.	.
8B-\	.	.	8b-\L	.	.	8dd\L	.	8B-\L	.	.	.	8b-\L	.	.	8cc\L	.	.
8B-\J	.	.	8cc\J	.	.	8ee-\J	.	8c\J	.	.	.	8cc\J	.	.	8dd\J	.	.
=72	=72	=72	=72	=72	=72	=72	=72	=72	=72	=72	=72	=72	=72	=72	=72	=72	=72
.	.	.	.	.	.	8qqgg/	.	8qqe-/	.	.	.	8qqee-/	.	.	8qqgg/	.	.
8B-\L	3 7-	.	4dd\	.	.	4ff\	.	4d\	-ma-	.	.	4dd\	.	.	4ff\	.	.
8B-\	.	.	.	.	.	.	.	.	.	.	.	.	.	.	.	.	.
8B-\	.	.	8cc\L	.	.	8ee-\L	.	8c\L	-rum	.	.	8cc\L	.	.	8ee-\L	.	.
8B-\J	.	.	8dd\J	.	.	8ff\J	.	8d\J	.	.	.	8dd\J	.	.	8ff\J	.	.
*Xtremolo	*	*	*	*	*	*	*	*	*	*	*	*	*	*	*	*	*
=73	=73	=73	=73	=73	=73	=73	=73	=73	=73	=73	=73	=73	=73	=73	=73	=73	=73
*	*	*	*tremolo	*	*	*	*	*	*	*	*	*	*	*	*	*	*
!	!	!	!	!	!	!	!	!	!	!	!	!LO:LB:g=original	!	!	!	!	!
!	!	!	!	!	!	!LO:LB:g=original	!	!	!	!	!	!	!	!	!	!	!
16B-\LL	4_ 6_	.	16ee-\LL	.	.	4gg\	.	4e-\	val-	.	.	4ee-\	.	.	4gg\	.	.
16B-\	.	.	16ee-\	.	.	.	.	.	.	.	.	.	.	.	.	.	.
16B-\	.	.	16ee-\	.	.	.	.	.	.	.	.	.	.	.	.	.	.
16B-\JJ	X X	.	16ee-\JJ	.	.	.	.	.	.	.	.	.	.	.	.	.	.
16B-\LL	5_ 3_	.	16cc\LL	.	.	4aan\	.	4f\	-le	.	.	4cc\	.	.	4aa\	.	.
16B-\	.	.	16cc\	.	.	.	.	.	.	.	.	.	.	.	.	.	.
16B-\	.	.	16cc\	.	.	.	.	.	.	.	.	.	.	.	.	.	.
16B-\JJ	X X	.	16cc\JJ	.	.	.	.	.	.	.	.	.	.	.	.	.	.
*	*	*	*Xtremolo	*	*	*	*	*	*	*	*	*	*	*	*	*	*
=74	=74	=74	=74	=74	=74	=74	=74	=74	=74	=74	=74	=74	=74	=74	=74	=74	=74
4B-\	6 4	.	4dd\	.	.	4bb-\	.	4g\	va-	.	.	4dd\	.	.	4bb-\	.	.
4r	.	.	4en/	.	.	4en/	.	4En\	.	.	.	4eX/	.	.	4eeX\	.	.
=75	=75	=75	=75	=75	=75	=75	=75	=75	=75	=75	=75	=75	=75	=75	=75	=75	=75
!	!	!	!	!	!	!	!	!	!	!	!	!	!	!	!LO:LB:g=original	!	!
!	!	!	!LO:LB:g=original	!	!	!	!	!	!	!	!	!	!	!	!	!	!
2r	.	.	4f/	.	.	8f/L	.	4F\	.	.	.	8f/	.	.	8cc\	.	.
!	!	!	!	!	!	!LO:TUP:a:problem=klamra łukowa	!	!	!	!	!	!	!	!	!	!	!
.	.	.	.	.	.	24ff\L	.	.	.	.	.	8r	.	.	8r	.	.
.	.	.	.	.	.	24dd\	.	.	.	.	.	.	.	.	.	.	.
.	.	.	.	.	.	24b-\JJ	.	.	.	.	.	.	.	.	.	.	.
*	*	*	*	*	*	*Xtuplet	*	*	*	*	*	*	*	*	*	*	*
.	.	.	4r	.	.	24ff\LL	.	16r	.	.	.	4r	.	.	4r	.	.
.	.	.	.	.	.	24dd\	.	.	.	.	.	.	.	.	.	.	.
.	.	.	.	.	.	.	.	16f\LL	.	.	.	.	.	.	.	.	.
.	.	.	.	.	.	24b-\JJ	.	.	.	.	.	.	.	.	.	.	.
.	.	.	.	.	.	24ff\LL	.	16d\	.	.	.	.	.	.	.	.	.
.	.	.	.	.	.	24dd\	.	.	.	.	.	.	.	.	.	.	.
.	.	.	.	.	.	.	.	16B-\JJ	.	.	.	.	.	.	.	.	.
.	.	.	.	.	.	24b-\JJ	.	.	.	.	.	.	.	.	.	.	.
=76	=76	=76	=76	=76	=76	=76	=76	=76	=76	=76	=76	=76	=76	=76	=76	=76	=76
!	!	!	!	!	!	!	!	!LO:LB:g=original	!	!	!	!	!	!	!	!	!
16r	.	.	16r	.	.	4f/	.	4F\	.	.	.	4b-\	.	.	4ee-\	.	.
16F\LL	.	.	16b-\LL	.	.	.	.	.	.	.	.	.	.	.	.	.	.
16F\	.	.	16b-\	.	.	.	.	.	.	.	.	.	.	.	.	.	.
16F\JJ	.	.	16b-\JJ	.	.	.	.	.	.	.	.	.	.	.	.	.	.
.	.	.	.	.	.	32qqb-/LLL	.	32qqB-\LLL	.	.	.	.	.	.	32qqccc/LLL	.	.
.	.	.	.	.	.	32qqcc/	.	32qqc\	.	.	.	.	.	.	32qqaa-/	.	.
.	.	.	.	.	.	32qqb-/	.	32qqB-\	.	.	.	.	.	.	32qqbb-/	.	.
.	.	.	.	.	.	32qqcc/JJJ	.	32qqc\JJJ	.	.	.	.	.	.	32qqaa-/JJJ	.	.
*tremolo	*	*	*	*	*	*	*	*	*	*	*	*	*	*	*	*	*
16F\LL	5	.	16b-\LL	.	.	4cc\	.	4cT\	.	.	.	16b-\LL	.	.	4ccc\	.	.
16F\	.	.	16b-\	.	.	.	.	.	.	.	.	16b-\	.	.	.	.	.
16F\	.	.	16an\	.	.	.	.	.	.	.	.	16a\	.	.	.	.	.
16F\JJ	.	.	16a\JJ	.	.	.	.	.	.	.	.	16a\JJ	.	.	.	.	.
*Xtremolo	*	*	*	*	*	*	*	*	*	*	*	*	*	*	*	*	*
=77	=77	=77	=77	=77	=77	=77	=77	=77	=77	=77	=77	=77	=77	=77	=77	=77	=77
!LO:TX:a:t=P:problem=mixed beam	!	!	!	!	!	!	!	!	!	!	!	!	!	!	!	!	!
!	!	!	!LO:SIC:v:s=8qqa/	!	!	!	!	!	!	!	!	!LO:SIC:v:s=8qqa/	!	!	!LO:SIC:v:s=8qqaa/	!	!
.	.	.	8qqa-/	.	.	.	.	.	.	.	.	8qqa-/	.	.	8qqaa-/	.	.
16BB-/LL	.	.	4b-\	.	.	4b-\	.	4B-\	-le	.	.	4b-\	.	.	4bb-\	.	.
16B-\	.	.	.	.	.	.	.	.	.	.	.	.	.	.	.	.	.
16BB-/	.	.	.	.	.	.	.	.	.	.	.	.	.	.	.	.	.
16B-\JJ	.	.	.	.	.	.	.	.	.	.	.	.	.	.	.	.	.
!LO:LB:g=original	!	!	!	!	!	!	!	!	!	!	!	!	!	!	!	!	!
!LO:TX:a:t=P:problem=mixed beam	!	!	!	!	!	!	!	!	!	!	!	!	!	!	!	!	!
16BB-/LL	.	.	4r	.	.	4r	.	4r	.	.	.	4r	.	.	4r	.	.
16B-\	.	.	.	.	.	.	.	.	.	.	.	.	.	.	.	.	.
16BB-/	.	.	.	.	.	.	.	.	.	.	.	.	.	.	.	.	.
16B-\JJ	.	.	.	.	.	.	.	.	.	.	.	.	.	.	.	.	.
=78	=78	=78	=78	=78	=78	=78	=78	=78	=78	=78	=78	=78	=78	=78	=78	=78	=78
*tremolo	*	*	*	*	*	*	*	*	*	*	*	*	*	*	*	*	*
!LO:TX:a:t=P:problem=mixed beam	!	!	!	!	!	!	!	!	!	!	!	!	!	!	!	!	!
16BB-/LL	.	.	8.ee-\L	.	.	8.gg\L	.	2r	.	.	.	8.ee-\L	.	.	8.gg\L	.	.
16B-\	.	.	.	.	.	.	.	.	.	.	.	.	.	.	.	.	.
16BB-/	.	.	.	.	.	.	.	.	.	.	.	.	.	.	.	.	.
16B-\	.	.	16ff\Jk	.	.	16aan\Jk	.	.	.	.	.	16gg\Jk	.	.	16aa\Jk	.	.
16BB-/	.	.	16gg\LL	.	.	16bb-\LL	.	.	.	.	.	16gg\LL	.	.	16bb-\LL	.	.
16B-\	.	.	16ff\	.	.	16aa\	.	.	.	.	.	16ff\	.	.	16aa\	.	.
16BB-/	.	.	16gg\	.	.	16bb-\	.	.	.	.	.	16gg\	.	.	16bb-\	.	.
16B-\JJ	.	.	16ee-\JJ	.	.	16gg\JJ	.	.	.	.	.	16ee-\JJ	.	.	16gg\JJ	.	.
=79	=79	=79	=79	=79	=79	=79	=79	=79	=79	=79	=79	=79	=79	=79	=79	=79	=79
!LO:TX:a:t=P:problem=mixed beam	!	!	!	!	!	!	!	!	!	!	!	!	!	!	!	!	!
16BB-/LL	.	.	8dd\L	.	.	8ff\L	.	2r	.	.	.	8dd\L	.	.	8ff\L	.	.
16B-\	.	.	.	.	.	.	.	.	.	.	.	.	.	.	.	.	.
16BB-/	.	.	8dd\	.	.	8ff\	.	.	.	.	.	8dd\	.	.	8ff\	.	.
16B-\	.	.	.	.	.	.	.	.	.	.	.	.	.	.	.	.	.
16BB-/	.	.	8dd\	.	.	8ff\	.	.	.	.	.	8dd\	.	.	8ff\	.	.
16B-\	.	.	.	.	.	.	.	.	.	.	.	.	.	.	.	.	.
16BB-/	.	.	8dd\J	.	.	8ff#X\J	.	.	.	.	.	8dd\J	.	.	8ff#X\J	.	.
16B-\JJ	.	.	.	.	.	.	.	.	.	.	.	.	.	.	.	.	.
=80	=80	=80	=80	=80	=80	=80	=80	=80	=80	=80	=80	=80	=80	=80	=80	=80	=80
!LO:TX:a:t=P:problem=mixed beam	!	!	!	!	!	!	!	!	!	!	!	!	!	!	!	!	!
16BB-/LL	.	.	8.ee-\L	.	.	8.gg\L	.	2r	.	.	.	8.ee-\L	.	.	8.gg\L	.	.
16B-\	.	.	.	.	.	.	.	.	.	.	.	.	.	.	.	.	.
16BB-/	.	.	.	.	.	.	.	.	.	.	.	.	.	.	.	.	.
16B-\	.	.	16ff\Jk	.	.	16aan\Jk	.	.	.	.	.	16ff\Jk	.	.	16aa\Jk	.	.
16BB-/	.	.	16gg\LL	.	.	16bb-\LL	.	.	.	.	.	16gg\LL	.	.	16bb-\LL	.	.
16B-\	.	.	16ff\	.	.	16aa\	.	.	.	.	.	16ff\	.	.	16aa\	.	.
16BB-/	.	.	16gg\	.	.	16bb-\	.	.	.	.	.	16gg\	.	.	16bb-\	.	.
16B-\JJ	.	.	16ee-\JJ	.	.	16gg\JJ	.	.	.	.	.	16ee-\JJ	.	.	16gg\JJ	.	.
=81	=81	=81	=81	=81	=81	=81	=81	=81	=81	=81	=81	=81	=81	=81	=81	=81	=81
!	!	!	!	!	!	!LO:LB:g=original	!	!	!	!	!	!	!	!	!	!	!
!LO:TX:a:t=P:problem=mixed beam	!	!	!	!	!	!	!	!	!	!	!	!	!	!	!	!	!
.	.	.	.	.	.	8qqgg/	.	.	.	.	.	.	.	.	8qqgg/	.	.
16BB-/LL	.	.	4dd\	.	.	4ff\	.	2r	.	.	.	4dd\	.	.	4ff\	.	.
16B-\	.	.	.	.	.	.	.	.	.	.	.	.	.	.	.	.	.
16BB-/	.	.	.	.	.	.	.	.	.	.	.	.	.	.	.	.	.
16B-\	.	.	.	.	.	.	.	.	.	.	.	.	.	.	.	.	.
16BB-/	.	.	4r	.	.	4r	.	.	.	.	.	4r	.	.	4r	.	.
16B-\	.	.	.	.	.	.	.	.	.	.	.	.	.	.	.	.	.
16BB-/	.	.	.	.	.	.	.	.	.	.	.	.	.	.	.	.	.
16B-\JJ	.	.	.	.	.	.	.	.	.	.	.	.	.	.	.	.	.
*Xtremolo	*	*	*	*	*	*	*	*	*	*	*	*	*	*	*	*	*
=82	=82	=82	=82	=82	=82	=82	=82	=82	=82	=82	=82	=82	=82	=82	=82	=82	=82
*	*	*	*^	*	*	*	*	*	*	*	*	*	*	*	*	*	*
!	!	!	!	!	!	!	!	!	!	!	!	!	!LO:LB:g=original	!	!	!	!	!
2F\	.	.	2an/	2e-\	.	.	4c/	.	2r	.	.	.	4e-/	.	.	4cc\	.	.
.	.	.	.	.	.	.	16c/LL	.	.	.	.	.	16e-/LL	.	.	16cc\LL	.	.
.	.	.	.	.	.	.	16B-/	.	.	.	.	.	16d/	.	.	16b-\	.	.
.	.	.	.	.	.	.	16c/	.	.	.	.	.	16e-/	.	.	16cc\	.	.
.	.	.	.	.	.	.	16d/JJ	.	.	.	.	.	16f/JJ	.	.	16dd\JJ	.	.
=83	=83	=83	=83	=83	=83	=83	=83	=83	=83	=83	=83	=83	=83	=83	=83	=83	=83	=83
*	*	*	*	*	*	*	*Xtuplet	*	*	*	*	*	*	*	*	*	*	*
!	!	!	!	!	!	!	!LO:TX:t=P:problem= mixed beam	!	!	!	!	!	!	!	!	!	!	!
!	!	!	!	!	!	!	!	!	!	!	!	!	!	!	!	!LO:LB:g=original	!	!
4BB-/	.	.	4b-/	4d\	.	.	8B-/L	.	2r	.	.	.	2r	.	.	2r	.	.
.	.	.	.	.	.	.	24ff\L	.	.	.	.	.	.	.	.	.	.	.
.	.	.	.	.	.	.	24dd\	.	.	.	.	.	.	.	.	.	.	.
.	.	.	.	.	.	.	24b-\JJ	.	.	.	.	.	.	.	.	.	.	.
4r	.	.	4r	4r	.	.	24dd\LL	.	.	.	.	.	.	.	.	.	.	.
.	.	.	.	.	.	.	24b-\	.	.	.	.	.	.	.	.	.	.	.
.	.	.	.	.	.	.	24f\JJ	.	.	.	.	.	.	.	.	.	.	.
.	.	.	.	.	.	.	24b-/LL	.	.	.	.	.	.	.	.	.	.	.
.	.	.	.	.	.	.	24f/	.	.	.	.	.	.	.	.	.	.	.
.	.	.	.	.	.	.	24d/JJ	.	.	.	.	.	.	.	.	.	.	.
=84	=84	=84	=84	=84	=84	=84	=84	=84	=84	=84	=84	=84	=84	=84	=84	=84	=84	=84
!	!	!	!LO:LB:g=original	!LO:LB:g=original	!	!	!	!	!	!	!	!	!	!	!	!	!	!
2F\	.	.	2an/	2e-\	.	.	8.c/L	.	2r	.	.	.	8.e-/L	.	.	8.cc\L	.	.
.	.	.	.	.	.	.	16c/Jk	.	.	.	.	.	16e-/Jk	.	.	16cc\Jk	.	.
.	.	.	.	.	.	.	16c/LL	.	.	.	.	.	16e-/LL	.	.	16cc\LL	.	.
.	.	.	.	.	.	.	16B-/	.	.	.	.	.	16d/	.	.	16b-\	.	.
.	.	.	.	.	.	.	16c/	.	.	.	.	.	16e-/	.	.	16cc\	.	.
.	.	.	.	.	.	.	16d/JJ	.	.	.	.	.	16f/JJ	.	.	16dd\JJ	.	.
*	*	*	*v	*v	*	*	*	*	*	*	*	*	*	*	*	*	*	*
=85	=85	=85	=85	=85	=85	=85	=85	=85	=85	=85	=85	=85	=85	=85	=85	=85	=85
!LO:TX:t=P:problem= mixed beam	!	!	!	!	!	!	!	!	!	!	!	!	!	!	!	!	!
8BB-/L	.	.	8b-L 8d/	.	.	8B-/L	.	2r	.	.	.	8d/L	.	.	8b-\L	.	.
8B-\	.	.	8b- 8d/	.	.	8b- 8d/	.	.	.	.	.	8d/	.	.	8b-\	.	.
8BB-/J	.	.	8b-J 8d/	.	.	8b-J 8d/	.	.	.	.	.	8d/J	.	.	8b-\J	.	.
8r	.	.	8r	.	.	8r	.	.	.	.	.	8r	.	.	8r	.	.
=86	=86	=86	=86	=86	=86	=86	=86	=86	=86	=86	=86	=86	=86	=86	=86	=86	=86
*	*	*	*tremolo	*	*	*tremolo	*	*	*	*	*	*	*	*	*	*	*
!LO:LB:g=original	!	!	!	!	!	!	!	!	!	!	!	!	!	!	!	!	!
4B-\	.	.	16b-\LL	.	.	16b-\LL	.	4B-\	E-	.	.	4b-\	.	.	4bb-\	.	.
.	.	.	16b-\	.	.	16b-\	.	.	.	.	.	.	.	.	.	.	.
.	.	.	16b-\	.	.	16b-\	.	.	.	.	.	.	.	.	.	.	.
.	.	.	16b-\JJ	.	.	16b-\JJ	.	.	.	.	.	.	.	.	.	.	.
4d-X\	.	.	16dd-X\LL	.	.	16dd-X\LL	.	4d-X\	-ia	.	.	4cc#X\	.	.	4ccc#X\	.	.
.	.	.	16dd-\	.	.	16dd-\	.	.	.	.	.	.	.	.	.	.	.
.	.	.	16dd-\	.	.	16dd-\	.	.	.	.	.	.	.	.	.	.	.
.	.	.	16dd-\JJ	.	.	16dd-\JJ	.	.	.	.	.	.	.	.	.	.	.
=87	=87	=87	=87	=87	=87	=87	=87	=87	=87	=87	=87	=87	=87	=87	=87	=87	=87
4G\	.	.	16g/LL	.	.	16g/LL	.	4G\	er-	.	.	4g/	.	.	4gg\	.	.
.	.	.	16g/	.	.	16g/	.	.	.	.	.	.	.	.	.	.	.
.	.	.	16g/	.	.	16g/	.	.	.	.	.	.	.	.	.	.	.
.	.	.	16g/JJ	.	.	16g/JJ	.	.	.	.	.	.	.	.	.	.	.
4B-\	.	.	16b-/LL	.	.	16b-/LL	.	4B-\	-go	.	.	4b-\	.	.	4bb-\	.	.
.	.	.	16b-/	.	.	16b-/	.	.	.	.	.	.	.	.	.	.	.
.	.	.	16b-/	.	.	16b-/	.	.	.	.	.	.	.	.	.	.	.
.	.	.	16b-/JJ	.	.	16b-/JJ	.	.	.	.	.	.	.	.	.	.	.
*	*	*	*Xtremolo	*	*	*Xtremolo	*	*	*	*	*	*	*	*	*	*	*
=88	=88	=88	=88	=88	=88	=88	=88	=88	=88	=88	=88	=88	=88	=88	=88	=88	=88
4E-\	.	.	4e-/	.	.	8e-/L	.	8.E-\L	ad-	.	.	2r	.	.	2r	.	.
.	.	.	.	.	.	8g/J	.	.	.	.	.	.	.	.	.	.	.
.	.	.	.	.	.	.	.	16G\Jk	-vo-	.	.	.	.	.	.	.	.
!	!	!	!	!	!	!LO:LB:g=original	!	!	!	!	!	!	!	!	!	!	!
.	.	.	.	.	.	8qqcc/	.	.	.	.	.	.	.	.	.	.	.
8r	.	.	8r	.	.	8b-\L	.	8B-\L	-ca-	.	.	.	.	.	.	.	.
8E-\	.	.	8b-\	.	.	8dd-X\J	.	8d-X\J	-ta	.	.	.	.	.	.	.	.
=89	=89	=89	=89	=89	=89	=89	=89	=89	=89	=89	=89	=89	=89	=89	=89	=89	=89
.	.	.	.	.	.	8qqee-/	.	8qqd/	.	.	.	.	.	.	.	.	.
!	!	!	!	!	!	!LO:SIC:v:s=8dd-\L	!	!	!	!	!	!	!	!	!	!	!
8A-X\L	.	.	16b-/LL	.	.	8dd\L	.	8c\L	nos-	.	.	2r	.	.	2r	.	.
.	.	.	16e-/	.	.	.	.	.	.	.	.	.	.	.	.	.	.
8E-\	.	.	16e-/	.	.	16cc\L	.	16B-\L	.	.	.	.	.	.	.	.	.
.	.	.	16e-/JJ	.	.	16b-\JJ	.	16A-\JJ	.	.	.	.	.	.	.	.	.
*	*	*	*tremolo	*	*	*	*	*	*	*	*	*	*	*	*	*	*
.	.	.	.	.	.	8qqa-/	.	8qqA-/	.	.	.	.	.	.	.	.	.
8B-\	.	.	16e-/LL	.	.	8g/L	.	8G\L	.	.	.	.	.	.	.	.	.
.	.	.	16e-/	.	.	.	.	.	.	.	.	.	.	.	.	.	.
8E-\J	.	.	16e-/	.	.	16f/L	.	16F\L	.	.	.	.	.	.	.	.	.
.	.	.	16e-/JJ	.	.	16e-/JJ	.	16E-\JJ	.	.	.	.	.	.	.	.	.
=90	=90	=90	=90	=90	=90	=90	=90	=90	=90	=90	=90	=90	=90	=90	=90	=90	=90
8c\L	.	.	16e-/LL	.	.	4a-/	.	4A-\	-tra	.	.	2r	.	.	2r	.	.
.	.	.	16e-/	.	.	.	.	.	.	.	.	.	.	.	.	.	.
8E-\	.	.	16e-/	.	.	.	.	.	.	.	.	.	.	.	.	.	.
.	.	.	16e-/	.	.	.	.	.	.	.	.	.	.	.	.	.	.
8G\	.	.	16e-/	.	.	8r	.	8r	.	.	.	.	.	.	.	.	.
.	.	.	16e-/	.	.	.	.	.	.	.	.	.	.	.	.	.	.
8E-\J	.	.	16e-/	.	.	8dd-X\	.	8d-X\	no-	.	.	.	.	.	.	.	.
.	.	.	16e-/JJ	.	.	.	.	.	.	.	.	.	.	.	.	.	.
=91	=91	=91	=91	=91	=91	=91	=91	=91	=91	=91	=91	=91	=91	=91	=91	=91	=91
!	!	!	!	!	!	!	!	!LO:LB:g=original	!	!	!	!	!	!	!	!	!
!	!	!	!	!	!	!LO:SIC:v:s=8qqd-/	!	!LO:SIC:v:s=8qqd-/	!	!	!	!	!	!	!	!	!
.	.	.	.	.	.	8qqdd/	.	8qqd/	.	.	.	.	.	.	.	.	.
8A-\L	.	.	16e-/LL	.	.	8cc\L	.	8c\L	.	.	.	2r	.	.	2r	.	.
.	.	.	16e-/	.	.	.	.	.	.	.	.	.	.	.	.	.	.
8E-\	.	.	16e-/	.	.	16b-\L	.	16B-\L	.	.	.	.	.	.	.	.	.
.	.	.	16e-/	.	.	16a-\JJ	.	16A-\JJ	.	.	.	.	.	.	.	.	.
.	.	.	.	.	.	8qqa-/	.	8qqA-/	.	.	.	.	.	.	.	.	.
8B-\	.	.	16e-/	.	.	8g/L	.	8G\L	.	.	.	.	.	.	.	.	.
.	.	.	16e-/	.	.	.	.	.	.	.	.	.	.	.	.	.	.
8E-\J	.	.	16e-/	.	.	16f/L	.	16F\L	.	.	.	.	.	.	.	.	.
.	.	.	16e-/JJ	.	.	16e-/JJ	.	16E-\JJ	.	.	.	.	.	.	.	.	.
*	*	*	*Xtremolo	*	*	*	*	*	*	*	*	*	*	*	*	*	*
=92	=92	=92	=92	=92	=92	=92	=92	=92	=92	=92	=92	=92	=92	=92	=92	=92	=92
!LO:TX:t=P:problem= mixed beam	!	!	!	!	!	!	!	!	!	!	!	!	!	!	!	!	!
8A-\L	.	.	8c/L	.	.	4a-/	.	4A-\	-stra	.	.	2r	.	.	2r	.	.
8AA-/	.	.	8cc 8e-/	.	.	.	.	.	.	.	.	.	.	.	.	.	.
8A-\J	.	.	8ccJ 8e-/	.	.	4r	.	4r	.	.	.	.	.	.	.	.	.
8r	.	.	8r	.	.	.	.	.	.	.	.	.	.	.	.	.	.
=93	=93	=93	=93	=93	=93	=93	=93	=93	=93	=93	=93	=93	=93	=93	=93	=93	=93
*	*	*	*tremolo	*	*	*tremolo	*	*	*	*	*	*	*	*	*	*	*
4c\	.	.	16cc\LL	.	.	16cc\LL	.	4c\	il	.	.	4cc\	.	.	4ccc\	.	.
.	.	.	16cc\	.	.	16cc\	.	.	.	.	.	.	.	.	.	.	.
.	.	.	16cc\	.	.	16cc\	.	.	.	.	.	.	.	.	.	.	.
.	.	.	16cc\JJ	.	.	16cc\JJ	.	.	.	.	.	.	.	.	.	.	.
4e-\	.	.	16ee-\LL	.	.	16ee-\LL	.	4e-\	los	.	.	4ee-\	.	.	4eee-\	.	.
.	.	.	16ee-\	.	.	16ee-\	.	.	.	.	.	.	.	.	.	.	.
.	.	.	16ee-\	.	.	16ee-\	.	.	.	.	.	.	.	.	.	.	.
.	.	.	16ee-\JJ	.	.	16ee-\JJ	.	.	.	.	.	.	.	.	.	.	.
=94	=94	=94	=94	=94	=94	=94	=94	=94	=94	=94	=94	=94	=94	=94	=94	=94	=94
!LO:LB:g=original	!	!	!LO:LB:g=original	!	!	!	!	!	!	!	!	!	!	!	!	!	!
4An\	.	.	16an\LL	.	.	16an/LL	.	4An\	tu-	.	.	4a\	.	.	4aa\	.	.
.	.	.	16a\	.	.	16a/	.	.	.	.	.	.	.	.	.	.	.
.	.	.	16a\	.	.	16a/	.	.	.	.	.	.	.	.	.	.	.
.	.	.	16a\JJ	.	.	16a/JJ	.	.	.	.	.	.	.	.	.	.	.
4c\	.	.	16cc\LL	.	.	16cc\LL	.	4c\	-os	.	.	4cc\	.	.	4ccc\	.	.
.	.	.	16cc\	.	.	16cc\	.	.	.	.	.	.	.	.	.	.	.
.	.	.	16cc\	.	.	16cc\	.	.	.	.	.	.	.	.	.	.	.
.	.	.	16cc\JJ	.	.	16cc\JJ	.	.	.	.	.	.	.	.	.	.	.
*	*	*	*Xtremolo	*	*	*Xtremolo	*	*	*	*	*	*	*	*	*	*	*
=95	=95	=95	=95	=95	=95	=95	=95	=95	=95	=95	=95	=95	=95	=95	=95	=95	=95
4F\	.	.	4f/	.	.	8.g/L	.	8.F\L	mi-	.	.	2r	.	.	2r	.	.
.	.	.	.	.	.	16a-/Jk	.	16A-\Jk	.	.	.	.	.	.	.	.	.
8r	.	.	8r	.	.	8.cc\L	.	8c\L	-se-	.	.	.	.	.	.	.	.
8F\	.	.	8a-/	.	.	.	.	8e-\J	-ri-	.	.	.	.	.	.	.	.
.	.	.	.	.	.	16ee-\Jk	.	.	.	.	.	.	.	.	.	.	.
=96	=96	=96	=96	=96	=96	=96	=96	=96	=96	=96	=96	=96	=96	=96	=96	=96	=96
!	!	!	!	!	!	!LO:LB:g=original	!	!	!	!	!	!	!	!	!	!	!
.	.	.	.	.	.	8qqee-/	.	8qqe-/	.	.	.	.	.	.	.	.	.
8B-\L	.	.	16b-/LL	.	.	8dd\L	.	8d\L	-Cor-	.	.	2r	.	.	2r	.	.
.	.	.	16f/	.	.	.	.	.	.	.	.	.	.	.	.	.	.
8F\	.	.	16f/	.	.	16cc\L	.	16c\L	-des	.	.	.	.	.	.	.	.
.	.	.	16f/JJ	.	.	16b-\JJ	.	16B-\JJ	.	.	.	.	.	.	.	.	.
*	*	*	*tremolo	*	*	*	*	*	*	*	*	*	*	*	*	*	*
.	.	.	.	.	.	8qqb-/	.	8qqB-/	.	.	.	.	.	.	.	.	.
8c\	.	.	16f/LL	.	.	8a-\L	.	8An\L	o-	.	.	.	.	.	.	.	.
.	.	.	16f/	.	.	.	.	.	.	.	.	.	.	.	.	.	.
8F\J	.	.	16f/	.	.	16g\L	.	16G\L	-cu-	.	.	.	.	.	.	.	.
.	.	.	16f/JJ	.	.	16f\JJ	.	16F\JJ	.	.	.	.	.	.	.	.	.
=97	=97	=97	=97	=97	=97	=97	=97	=97	=97	=97	=97	=97	=97	=97	=97	=97	=97
8dn\L	.	.	16f/LL	.	.	4b-\	.	4B-\	-los	.	.	2r	.	.	2r	.	.
.	.	.	16f/	.	.	.	.	.	.	.	.	.	.	.	.	.	.
8F\	.	.	16f/	.	.	.	.	.	.	.	.	.	.	.	.	.	.
.	.	.	16f/	.	.	.	.	.	.	.	.	.	.	.	.	.	.
8A-\	.	.	16f/	.	.	8r	.	8r	.	.	.	.	.	.	.	.	.
.	.	.	16f/	.	.	.	.	.	.	.	.	.	.	.	.	.	.
8F\J	.	.	16f/	.	.	8ee-\	.	8e-\	mi-	.	.	.	.	.	.	.	.
.	.	.	16f/JJ	.	.	.	.	.	.	.	.	.	.	.	.	.	.
=98	=98	=98	=98	=98	=98	=98	=98	=98	=98	=98	=98	=98	=98	=98	=98	=98	=98
!	!	!	!	!	!	!	!	!LO:LB:g=original	!	!	!	!	!	!	!	!	!
.	.	.	.	.	.	8qqee-/	.	8qqe-/	.	.	.	.	.	.	.	.	.
8B-\L	.	.	16f/LL	.	.	8dd\L	.	8d\L	-se-	.	.	2r	.	.	2r	.	.
.	.	.	16f/	.	.	.	.	.	.	.	.	.	.	.	.	.	.
8F\	.	.	16f/	.	.	16cc\L	.	16c\L	-ri-	.	.	.	.	.	.	.	.
.	.	.	16f/	.	.	16b-\JJ	.	16B-\JJ	.	.	.	.	.	.	.	.	.
.	.	.	.	.	.	8qqa-/	.	8qqB-/	.	.	.	.	.	.	.	.	.
8c\	.	.	16f/	.	.	8g/L	.	8A-\L	-Cor-	.	.	.	.	.	.	.	.
.	.	.	16f/	.	.	.	.	.	.	.	.	.	.	.	.	.	.
8F\J	.	.	16f/	.	.	16f/L	.	16G\L	.	.	.	.	.	.	.	.	.
.	.	.	16f/JJ	.	.	16e-/JJ	.	16F\JJ	.	.	.	.	.	.	.	.	.
*	*	*	*Xtremolo	*	*	*	*	*	*	*	*	*	*	*	*	*	*
=99	=99	=99	=99	=99	=99	=99	=99	=99	=99	=99	=99	=99	=99	=99	=99	=99	=99
!LO:TX:t=P:problem= mixed beam	!	!	!	!	!	!	!	!	!	!	!	!	!	!	!	!	!
8B-\L	.	.	4d/	.	.	4b-\	.	4B-\	-des	.	.	4gg\	.	.	4bb-\	.	.
8BB-/	.	.	.	.	.	.	.	.	.	.	.	.	.	.	.	.	.
8B-\J	.	.	8r	.	.	8r	.	8r	.	.	.	8r	.	.	8r	.	.
8r	.	.	16d/LL	.	.	16f/LL	.	16F\LL	ad	.	.	16dd\LL	.	.	16ff\LL	.	.
.	.	.	16e-/JJ	.	.	16g/JJ	.	16G\JJ	.	.	.	16ee-\JJ	.	.	16gg\JJ	.	.
=100	=100	=100	=100	=100	=100	=100	=100	=100	=100	=100	=100	=100	=100	=100	=100	=100	=100
!	!	!	!	!	!	!	!	!	!	!	!	!LO:LB:g=original	!	!	!	!	!
8r	.	.	8.f/L	.	.	8.a-\L	.	8.A-\L	nos	.	.	8.ff\L	.	.	8.aa-\L	.	.
8BB-/L	.	.	.	.	.	.	.	.	.	.	.	.	.	.	.	.	.
.	.	.	16g/Jk	.	.	16b-\Jk	.	16B-\Jk	.	.	.	16gg\Jk	.	.	16bb-\Jk	.	.
.	.	.	8qqb-/	.	.	8qqdd/	.	8qqd/	.	.	.	8qqbb-/	.	.	8qqddd/	.	.
8BB-/	.	.	8a-/L	.	.	8cc\L	.	8c\L	Con-	.	.	8aa-\L	.	.	8ccc\L	.	.
8BB-/J	.	.	16g/L	.	.	16b-\L	.	16B-\L	.	.	.	16gg\L	.	.	16bb-\L	.	.
.	.	.	16f/JJ	.	.	16a-X\JJ	.	16A-X\JJ	.	.	.	16ff\JJ	.	.	16aa-\JJ	.	.
=101	=101	=101	=101	=101	=101	=101	=101	=101	=101	=101	=101	=101	=101	=101	=101	=101	=101
!LO:LB:g=original	!	!	!	!	!	!	!	!	!	!	!	!	!	!	!LO:LB:g=original	!	!
8r	.	.	8.e-/L	.	.	8.g/L	.	8.G\L	-Ver-	.	.	8.ee-\L	.	.	8.gg\L	.	.
8E-\L	.	.	.	.	.	.	.	.	.	.	.	.	.	.	.	.	.
.	.	.	16f/Jk	.	.	16a-/Jk	.	16A-\Jk	.	.	.	16ff\Jk	.	.	16aa-\Jk	.	.
.	.	.	8qqa-/	.	.	8qqcc/	.	8qqc/	.	.	.	8qqaa-/	.	.	8qqccc/	.	.
8E-\	.	.	8g/L	.	.	8b-\L	.	8B-\L	.	.	.	8gg\L	.	.	8bb-\L	.	.
8E-\J	.	.	16f/L	.	.	16a-\L	.	16A-\L	.	.	.	16ff\L	.	.	16aa-\L	.	.
.	.	.	16e-/JJ	.	.	16g\JJ	.	16G\JJ	.	.	.	16ee-\JJ	.	.	16gg\JJ	.	.
=102	=102	=102	=102	=102	=102	=102	=102	=102	=102	=102	=102	=102	=102	=102	=102	=102	=102
!	!	!	!LO:LB:g=original	!	!	!	!	!	!	!	!	!	!	!	!	!	!
4BB-/	.	.	16d/LL	.	.	16e-/LL	.	16F\LL	.	.	.	2r	.	.	2r	.	.
.	.	.	16e-/	.	.	16g/	.	16G\	.	.	.	.	.	.	.	.	.
.	.	.	16f/	.	.	16a-/	.	16A-\	.	.	.	.	.	.	.	.	.
.	.	.	16g/JJ	.	.	16b-/JJ	.	16B-\JJ	.	.	.	.	.	.	.	.	.
!	!	!	!	!	!	!LO:LB:g=original	!	!	!	!	!	!	!	!	!	!	!
8r	.	.	16a-\LL	.	.	16cc\LL	.	16c\LL	.	.	.	.	.	.	.	.	.
.	.	.	16b-\	.	.	16dd\	.	16d\	.	.	.	.	.	.	.	.	.
8BB-/	.	.	16cc\	.	.	16ee-\	.	16e-\	.	.	.	.	.	.	.	.	.
.	.	.	16dd\JJ	.	.	16ff\JJ	.	16f\JJ	.	.	.	.	.	.	.	.	.
=103	=103	=103	=103	=103	=103	=103	=103	=103	=103	=103	=103	=103	=103	=103	=103	=103	=103
4E-\	.	.	16ee-\LL	.	.	16gg\LL	.	8g\L	.	.	.	2r	.	.	2r	.	.
.	.	.	16ee-\	.	.	16gg\	.	.	.	.	.	.	.	.	.	.	.
.	.	.	16dd\	.	.	16ff\	.	16f\L	.	.	.	.	.	.	.	.	.
.	.	.	16cc\JJ	.	.	16ee-\JJ	.	16e-\JJ	.	.	.	.	.	.	.	.	.
4r	.	.	16b-/LL	.	.	16dd\LL	.	16d\LL	.	.	.	.	.	.	.	.	.
.	.	.	16a-/	.	.	16cc\	.	16c\	.	.	.	.	.	.	.	.	.
.	.	.	16g/	.	.	16b-\	.	16B-\	.	.	.	.	.	.	.	.	.
.	.	.	16f/JJ	.	.	16a-\JJ	.	16A-\JJ	.	.	.	.	.	.	.	.	.
=104	=104	=104	=104	=104	=104	=104	=104	=104	=104	=104	=104	=104	=104	=104	=104	=104	=104
!	!	!	!	!	!	!	!	!LO:LB:g=original	!	!	!	!	!	!	!	!	!
16r	.	.	16r	.	.	4g/	.	4G\	.	.	.	2r	.	.	2r	.	.
16E-\LL	.	.	16e-/LL	.	.	.	.	.	.	.	.	.	.	.	.	.	.
16E-\	.	.	16e-/	.	.	.	.	.	.	.	.	.	.	.	.	.	.
16E-\JJ	.	.	16e-/JJ	.	.	.	.	.	.	.	.	.	.	.	.	.	.
!LO:TX:t=P:problem= mixed beam	!	!	!	!	!	!	!	!	!	!	!	!	!	!	!	!	!
16B-\LL	.	.	16e-/LL	.	.	4f/	.	4F\	.	.	.	.	.	.	.	.	.
16B-\	.	.	16e-/	.	.	.	.	.	.	.	.	.	.	.	.	.	.
16BB-/	.	.	16d/	.	.	.	.	.	.	.	.	.	.	.	.	.	.
16BB-/JJ	.	.	16d/JJ	.	.	.	.	.	.	.	.	.	.	.	.	.	.
=105	=105	=105	=105	=105	=105	=105	=105	=105	=105	=105	=105	=105	=105	=105	=105	=105	=105
.	.	.	.	.	.	.	.	16qqE-/LL	.	.	.	.	.	.	.	.	.
.	.	.	.	.	.	.	.	16qqG/JJ	.	.	.	.	.	.	.	.	.
8E-\L	.	.	8e-/L	.	.	8r	.	4E-\	-te	.	.	8r	.	.	8r	.	.
8G\	.	.	8B-/	.	.	32e-/LLL	.	.	.	.	.	32e-/LLL	.	.	32ee-\LLL	.	.
.	.	.	.	.	.	32f/	.	.	.	.	.	32f/	.	.	32ff\	.	.
.	.	.	.	.	.	32g/	.	.	.	.	.	32g/	.	.	32gg\	.	.
.	.	.	.	.	.	32f/JJJ	.	.	.	.	.	32f/JJJ	.	.	32ff\JJJ	.	.
8G\	.	.	8B-/	.	.	16e-/LL	.	4r	.	.	.	16e-/LL	.	.	16ee-\LL	.	.
.	.	.	.	.	.	16e-/	.	.	.	.	.	16e-/	.	.	16ee-\	.	.
8G\J	.	.	8B-/J	.	.	16e-/	.	.	.	.	.	16e-/	.	.	16ee-\	.	.
.	.	.	.	.	.	16en/JJ	.	.	.	.	.	16eX/JJ	.	.	16eeX\JJ	.	.
=106	=106	=106	=106	=106	=106	=106	=106	=106	=106	=106	=106	=106	=106	=106	=106	=106	=106
!	!	!	!	!	!	!	!	!	!	!	!	!LO:SIC:v:s=16e/LL	!	!	!LO:SIC:v:s=16ee\LL	!	!
!	!	!	!	!	!	!LO:SIC:v:s=16en/LL	!	!	!	!	!	!	!	!	!	!	!
8r	.	.	8r	.	.	16e-/LL	.	2r	.	.	.	16e-/LL	.	.	16ee-\LL	.	.
.	.	.	.	.	.	16f/JJ	.	.	.	.	.	16f/JJ	.	.	16ff\JJ	.	.
8A-X\L	.	.	8c/L	.	.	4f/	.	.	.	.	.	4f/	.	.	4ff\	.	.
8A-\	.	.	8c/	.	.	.	.	.	.	.	.	.	.	.	.	.	.
8A-\J	.	.	8c/J	.	.	32f/LLL	.	.	.	.	.	32f/LLL	.	.	32ff\LLL	.	.
.	.	.	.	.	.	32g/	.	.	.	.	.	32g/	.	.	32gg\	.	.
.	.	.	.	.	.	32f/	.	.	.	.	.	32f/	.	.	32ff\	.	.
.	.	.	.	.	.	32g/JJJ	.	.	.	.	.	32g/JJJ	.	.	32gg\JJJ	.	.
=107	=107	=107	=107	=107	=107	=107	=107	=107	=107	=107	=107	=107	=107	=107	=107	=107	=107
*	*	*	*	*	*	*tuplet	*	*	*	*	*	*	*	*	*	*	*
!	!	!	!	!	!	!	!	!	!	!	!	!LO:TUP:b:problem= klamra łukowa	!	!	!LO:TUP:a:problem= klamra łukowa	!	!
!LO:PB:g=original	!	!	!	!	!	!LO:TUP:b:problem=klamra łukowa	!	!	!	!	!	!	!	!	!	!	!
8r	.	.	8r	.	.	24a-/LL	.	2r	.	.	.	24a-/LL	.	.	24aa-\LL	.	.
.	.	.	.	.	.	24f/	.	.	.	.	.	24f/	.	.	24ff\	.	.
.	.	.	.	.	.	24d/JJ	.	.	.	.	.	24d/JJ	.	.	24dd\JJ	.	.
8B-\L	.	.	8fL 8A-X/	.	.	16d/LL	.	.	.	.	.	16d/LL	.	.	16dd\LL	.	.
.	.	.	.	.	.	16d/JJ	.	.	.	.	.	16d/JJ	.	.	16dd\JJ	.	.
*	*	*	*	*	*	*tremolo	*	*	*	*	*	*tremolo	*	*	*	*	*
8B-\	.	.	8f 8A-/	.	.	16d/LL	.	.	.	.	.	16d/LL	.	.	16dd\LL	.	.
.	.	.	.	.	.	16d/	.	.	.	.	.	16d/	.	.	16dd\	.	.
8B-\J	.	.	8fJ 8A-/	.	.	16d/	.	.	.	.	.	16d/	.	.	16dd\	.	.
.	.	.	.	.	.	16d/JJ	.	.	.	.	.	16d/JJ	.	.	16dd\JJ	.	.
*	*	*	*	*	*	*Xtremolo	*	*	*	*	*	*Xtremolo	*	*	*	*	*
=108	=108	=108	=108	=108	=108	=108	=108	=108	=108	=108	=108	=108	=108	=108	=108	=108	=108
!	!	!	!	!	!	!LO:LB:g=original	!	!	!	!	!	!	!	!	!	!	!
!	!	!	!LO:LB:g=original	!	!	!	!	!	!	!	!	!	!	!	!	!	!
8r	.	.	16A-/LL	.	.	16d/LL	.	2r	.	.	.	16d/LL	.	.	16dd\LL	.	.
.	.	.	16G/JJ	.	.	16e-/JJ	.	.	.	.	.	16e-/JJ	.	.	16ee-\JJ	.	.
8E-\L	.	.	4G/	.	.	4e-/	.	.	.	.	.	4e-/	.	.	4ee-\	.	.
8G\	.	.	.	.	.	.	.	.	.	.	.	.	.	.	.	.	.
8B-\J	.	.	8r	.	.	8r	.	.	.	.	.	8r	.	.	8r	.	.
=109	=109	=109	=109	=109	=109	=109	=109	=109	=109	=109	=109	=109	=109	=109	=109	=109	=109
!	!	!	!	!	!	!	!	!	!	!	!	!LO:LB:g=original	!	!	!	!	!
8e-\L	.	.	8r	.	.	8r	.	4.E-\	Et	.	.	2r	.	.	2r	.	.
8G\	.	.	8b-\L	.	.	32ee-\LLL	.	.	.	.	.	.	.	.	.	.	.
.	.	.	.	.	.	32ff\	.	.	.	.	.	.	.	.	.	.	.
.	.	.	.	.	.	32gg\	.	.	.	.	.	.	.	.	.	.	.
.	.	.	.	.	.	32ff\JJJ	.	.	.	.	.	.	.	.	.	.	.
8G\	.	.	8b-\	.	.	16ee-\LL	.	.	.	.	.	.	.	.	.	.	.
.	.	.	.	.	.	16ee-\	.	.	.	.	.	.	.	.	.	.	.
8G\J	.	.	8b-\J	.	.	16ee-\	.	8En\	Je-	.	.	.	.	.	.	.	.
.	.	.	.	.	.	16een\JJ	.	.	.	.	.	.	.	.	.	.	.
=110	=110	=110	=110	=110	=110	=110	=110	=110	=110	=110	=110	=110	=110	=110	=110	=110	=110
!	!	!	!	!	!	!	!	!LO:SIC:v:s=8E\L	!	!	!	!	!	!	!	!	!
!	!	!	!	!	!	!LO:SIC:v:s=16een\LL	!	!	!	!	!	!	!	!	!	!	!
8r	.	.	8r	.	.	16ee-\LL	.	8E-\L	.	.	.	2r	.	.	2r	.	.
.	.	.	.	.	.	16ff\JJ	.	.	.	.	.	.	.	.	.	.	.
8A-\L	.	.	8cc\L	.	.	4ff\	.	8F\J	.	.	.	.	.	.	.	.	.
8A-\	.	.	8cc\	.	.	.	.	4F\	-sum	.	.	.	.	.	.	.	.
8A-\J	.	.	8cc\J	.	.	32ff\LLL	.	.	.	.	.	.	.	.	.	.	.
.	.	.	.	.	.	32gg\	.	.	.	.	.	.	.	.	.	.	.
.	.	.	.	.	.	32ff\	.	.	.	.	.	.	.	.	.	.	.
.	.	.	.	.	.	32gg\JJJ	.	.	.	.	.	.	.	.	.	.	.
=111	=111	=111	=111	=111	=111	=111	=111	=111	=111	=111	=111	=111	=111	=111	=111	=111	=111
*	*	*	*	*	*	*Xtuplet	*	*	*	*	*	*	*	*	*	*	*
8r	.	.	8r	.	.	24aa-\LL	.	4.D\	Be-	.	.	2r	.	.	2r	.	.
.	.	.	.	.	.	24ff\	.	.	.	.	.	.	.	.	.	.	.
.	.	.	.	.	.	24dd\JJ	.	.	.	.	.	.	.	.	.	.	.
!LO:TX:t=P:problem= mixed beam	!	!	!	!	!	!	!	!	!	!	!	!	!	!	!	!	!
8B-\L	.	.	8f/L	.	.	16dd\LL	.	.	.	.	.	.	.	.	.	.	.
.	.	.	.	.	.	16dd\JJ	.	.	.	.	.	.	.	.	.	.	.
*	*	*	*	*	*	*tremolo	*	*	*	*	*	*	*	*	*	*	*
8BB-/	.	.	8f/	.	.	16dd\LL	.	.	.	.	.	.	.	.	.	.	.
.	.	.	.	.	.	16dd\	.	.	.	.	.	.	.	.	.	.	.
8B-\J	.	.	8f/J	.	.	16dd\	.	8D\	-ne-	.	.	.	.	.	.	.	.
.	.	.	.	.	.	16dd\JJ	.	.	.	.	.	.	.	.	.	.	.
*	*	*	*	*	*	*Xtremolo	*	*	*	*	*	*	*	*	*	*	*
=112	=112	=112	=112	=112	=112	=112	=112	=112	=112	=112	=112	=112	=112	=112	=112	=112	=112
8r	.	.	16f/LL	.	.	16dd\LL	.	8D\L	-di-	.	.	2r	.	.	2r	.	.
.	.	.	16g/JJ	.	.	16ee-\JJ	.	.	.	.	.	.	.	.	.	.	.
8E-\L	.	.	4g/	.	.	4ee-\	.	8E-X\J	.	.	.	.	.	.	.	.	.
8G\	.	.	.	.	.	.	.	4E-\	-ctum	.	.	.	.	.	.	.	.
8B-\J	.	.	8r	.	.	8r	.	.	.	.	.	.	.	.	.	.	.
=113	=113	=113	=113	=113	=113	=113	=113	=113	=113	=113	=113	=113	=113	=113	=113	=113	=113
*	*	*	*	*	*	*tuplet	*	*	*	*	*	*	*	*	*	*	*
!LO:LB:g=original	!	!	!	!	!	!LO:TX:t=P:problem= mixed beam	!	!	!	!	!	!	!	!	!	!	!
8e-\	.	.	8b- 8g/	.	.	8e-/L	.	4e-\	fruc-	.	.	2r	.	.	2r	.	.
!	!	!	!	!	!	!LO:TUP:a:problem=klamra łukowa	!	!	!	!	!	!	!	!	!	!	!
8r	.	.	8r	.	.	24bb-\L	.	.	.	.	.	.	.	.	.	.	.
.	.	.	.	.	.	24gg\	.	.	.	.	.	.	.	.	.	.	.
.	.	.	.	.	.	24ee-\JJ	.	.	.	.	.	.	.	.	.	.	.
8B-\	.	.	8b- 8g/	.	.	8dd\L	.	4B-\	-tum	.	.	.	.	.	.	.	.
!	!	!	!	!	!	!LO:TUP:a:problem=klamra łukowa	!	!	!	!	!	!	!	!	!	!	!
8r	.	.	8r	.	.	24aa-\L	.	.	.	.	.	.	.	.	.	.	.
.	.	.	.	.	.	24ff\	.	.	.	.	.	.	.	.	.	.	.
.	.	.	.	.	.	24dd\JJ	.	.	.	.	.	.	.	.	.	.	.
=114	=114	=114	=114	=114	=114	=114	=114	=114	=114	=114	=114	=114	=114	=114	=114	=114	=114
*	*	*	*	*	*	*Xtuplet	*	*	*	*	*	*	*	*	*	*	*
!	!	!	!	!	!	!LO:LB:g=original	!	!	!	!	!	!	!	!	!	!	!
8E-\L	.	.	8g\L	.	.	8ee-\L	.	4G\	Ven-	.	.	2r	.	.	2r	.	.
!LO:TUP:a:problem= klamra łukowa	!	!	!	!	!	!	!	!	!	!	!	!	!	!	!	!	!
24e-\L	.	.	24ee-\L	.	.	24ee-\L	.	.	.	.	.	.	.	.	.	.	.
24B-\	.	.	24b-\	.	.	24b-\	.	.	.	.	.	.	.	.	.	.	.
24G\JJ	.	.	24g\JJ	.	.	24g\JJ	.	.	.	.	.	.	.	.	.	.	.
8B-\L	.	.	8b-\L	.	.	8b-\L	.	4E-\	-tris	.	.	.	.	.	.	.	.
!LO:TUP:a:problem= klamra łukowa	!	!	!	!	!	!	!	!	!	!	!	!	!	!	!	!	!
24B-\L	.	.	24b-\L	.	.	24b-\L	.	.	.	.	.	.	.	.	.	.	.
24G\	.	.	24g\	.	.	24g\	.	.	.	.	.	.	.	.	.	.	.
24E-\JJ	.	.	24e-\JJ	.	.	24e-\JJ	.	.	.	.	.	.	.	.	.	.	.
=115	=115	=115	=115	=115	=115	=115	=115	=115	=115	=115	=115	=115	=115	=115	=115	=115	=115
!LO:TX:t=P:problem= mixed beam	!	!	!	!	!	!	!	!	!	!	!	!	!	!	!	!	!
!	!	!	!	!	!	!	!	!LO:LB:g=original	!	!	!	!	!	!	!	!	!
8BB-/L	.	.	4B-/	.	.	4B-/	.	8B-\	tu-	.	.	2r	.	.	2r	.	.
8B-\	.	.	.	.	.	.	.	8BB-/	-i	.	.	.	.	.	.	.	.
8B-\	.	.	4r	.	.	4r	.	4r	.	.	.	.	.	.	.	.	.
8B-\J	.	.	.	.	.	.	.	.	.	.	.	.	.	.	.	.	.
=116	=116	=116	=116	=116	=116	=116	=116	=116	=116	=116	=116	=116	=116	=116	=116	=116	=116
*tremolo	*	*	*	*	*	*	*	*	*	*	*	*	*	*	*	*	*
!	!	!	!LO:LB:g=original	!	!	!	!	!	!	!	!	!	!	!	!	!	!
8B-\L	.	.	4r	.	.	16b-\LL	.	4B-\	no-	.	.	4r	.	.	16b-\LL	.	.
.	.	.	.	.	.	16cc\	.	.	.	.	.	.	.	.	16cc\	.	.
8B-\	.	.	.	.	.	16b-\	.	.	.	.	.	.	.	.	16b-\	.	.
.	.	.	.	.	.	16cc\JJ	.	.	.	.	.	.	.	.	16cc\JJ	.	.
!	!	!	!	!	!	!	!	!	!	!	!	!	!	!	!LO:LB:g=original	!	!
8B-\	.	.	16b-\LL	.	.	16dd\LL	.	8B-\	-bis	.	.	16b-\LL	.	.	16dd\LL	.	.
.	.	.	16cc\	.	.	16ee-\	.	.	.	.	.	16cc\	.	.	16ee-\	.	.
8B-\J	.	.	16b-\	.	.	16dd\	.	8B-\	post	.	.	16b-\	.	.	16dd\	.	.
.	.	.	16cc\JJ	.	.	16ee-\JJ	.	.	.	.	.	16cc\JJ	.	.	16ee-\JJ	.	.
=117	=117	=117	=117	=117	=117	=117	=117	=117	=117	=117	=117	=117	=117	=117	=117	=117	=117
8B-\L	.	.	16dd\LL	.	.	16ff\LL	.	4B-\	Choc	.	.	16dd\LL	.	.	16ff\LL	.	.
.	.	.	16ee-\	.	.	16gg\	.	.	.	.	.	16ee-\	.	.	16gg\	.	.
8B-\	.	.	16dd\	.	.	16ff\	.	.	.	.	.	16dd\	.	.	16ff\	.	.
.	.	.	16ee-\JJ	.	.	16gg\JJ	.	.	.	.	.	16ee-\JJ	.	.	16gg\JJ	.	.
8B-\	.	.	8ff\	.	.	8aa-\	.	4r	.	.	.	8ff\	.	.	8aa-\	.	.
8B-\J	.	.	8r	.	.	8r	.	.	.	.	.	8r	.	.	8r	.	.
*Xtremolo	*	*	*	*	*	*	*	*	*	*	*	*	*	*	*	*	*
=118	=118	=118	=118	=118	=118	=118	=118	=118	=118	=118	=118	=118	=118	=118	=118	=118	=118
8r	.	.	16g/LL	.	.	16b-\LL	.	8r	.	.	.	16g/LL	.	.	16b-\LL	.	.
.	.	.	16a-X/	.	.	16cc\	.	.	.	.	.	16a-/	.	.	16cc\	.	.
8E-\L	.	.	16g/	.	.	16b-\	.	8e-\	plost	.	.	16g/	.	.	16b-\	.	.
.	.	.	16g/JJ	.	.	16ee-\JJ	.	.	.	.	.	16g/JJ	.	.	16ff\JJ	.	.
8E-\	.	.	16g/LL	.	.	16ee-\LL	.	8e-\	Choc	.	.	16g/LL	.	.	16ee-\LL	.	.
.	.	.	16a-/	.	.	16ff\	.	.	.	.	.	16a-/	.	.	16ff\	.	.
8E-\J	.	.	16g/	.	.	16ee-\	.	8e-\	ex-	.	.	16g/	.	.	16ee-\	.	.
.	.	.	16dd/JJ	.	.	16ff\JJ	.	.	.	.	.	16dd/JJ	.	.	16ff\JJ	.	.
=119	=119	=119	=119	=119	=119	=119	=119	=119	=119	=119	=119	=119	=119	=119	=119	=119	=119
*tremolo	*	*	*	*	*	*	*	*	*	*	*	*	*	*	*	*	*
8E-\L	.	.	16ee-\LL	.	.	16gg\LL	.	8.e-\	-li-	.	.	16ee-\LL	.	.	16gg\LL	.	.
.	.	.	16ff\	.	.	16aa-\	.	.	.	.	.	16ff\	.	.	16aa-\	.	.
8E-\	.	.	16ee-\	.	.	16gg\	.	.	.	.	.	16ee-\	.	.	16gg\	.	.
.	.	.	16ff\JJ	.	.	16aa-\JJ	.	16E-\	-um	.	.	16ff\JJ	.	.	16aa-\JJ	.	.
8E-\	.	.	8gg\	.	.	8bb-\	.	4E-\	.	.	.	8gg\	.	.	8bb-\	.	.
8E-\J	.	.	8r	.	.	8r	.	.	.	.	.	8r	.	.	8r	.	.
*Xtremolo	*	*	*	*	*	*	*	*	*	*	*	*	*	*	*	*	*
=120	=120	=120	=120	=120	=120	=120	=120	=120	=120	=120	=120	=120	=120	=120	=120	=120	=120
!	!	!	!	!	!	!	!	!LO:TX:t=P:problem= mixed beam	!	!	!	!	!	!	!	!	!
!	!	!	!	!	!	!LO:PB:g=original	!	!	!	!	!	!	!	!	!	!	!
!	!	!	!	!	!LO:MO:null:mod=!LO&colon;DY&colon;ed=brack	!	!LO:MO:null:mod=!LO&colon;DY&colon;ed=brack	!	!	!	!	!	!	!	!	!	!
!	!	!LO:DY:a	!	!	!	!	!	!	!	!	!	!	!	!	!	!	!
8D\L	.	p	8b-L 8f/	.	p	16b-\LL	p	8E-\L	no-	.	.	2r	.	.	2r	.	.
.	.	.	.	.	.	16cc\	.	.	.	.	.	.	.	.	.	.	.
!	!	!	!	!	!LO:MO:null:mod=!LO&colon;DY&colon;ed=brack	!	!LO:MO:null:mod=!LO&colon;DY&colon;ed=brack	!	!	!	!	!	!	!	!	!	!
!	!	!LO:DY:a	!	!	!	!	!	!	!	!	!	!	!	!	!	!	!
8BB-\	.	f	8b- 8f/	.	f	16b-\	f	8BB-/J	.	.	.	.	.	.	.	.	.
.	.	.	.	.	.	16aa-\JJ	.	.	.	.	.	.	.	.	.	.	.
!	!	!	!	!	!LO:MO:null:mod=!LO&colon;DY&colon;ed=brack	!	!LO:MO:null:mod=!LO&colon;DY&colon;ed=brack	!	!	!	!	!	!	!	!	!	!
!	!	!LO:DY:a	!	!	!	!	!	!	!	!	!	!	!	!	!	!	!
8E-\	.	p	8b- 8g/	.	p	16b-\LL	p	8E-\	-bis	.	.	.	.	.	.	.	.
.	.	.	.	.	.	16cc\	.	.	.	.	.	.	.	.	.	.	.
!	!	!	!	!	!LO:MO:null:mod=!LO&colon;DY&colon;ed=brack	!	!LO:MO:null:mod=!LO&colon;DY&colon;ed=brack	!	!	!	!	!	!	!	!	!	!
!	!	!LO:DY:a	!	!	!	!	!	!	!	!	!	!	!	!	!	!	!
8BB-\J	.	f	8b-J 8g/	.	f	16b-\	f	8r	.	.	.	.	.	.	.	.	.
.	.	.	.	.	.	16gg\JJ	.	.	.	.	.	.	.	.	.	.	.
=121	=121	=121	=121	=121	=121	=121	=121	=121	=121	=121	=121	=121	=121	=121	=121	=121	=121
*	*	*	*^	*	*	*	*	*	*	*	*	*	*	*	*	*	*
!	!	!	!	!	!	!	!	!	!LO:TX:t=P:problem= mixed beam	!	!	!	!	!	!	!	!	!
.	.	.	.	.	.	.	.	.	8qqE-/	.	.	.	.	.	.	.	.	.
!	!	!	!	!	!	!LO:MO:null:mod=!LO&colon;DY&colon;ed=brack	!	!LO:MO:null:mod=!LO&colon;DY&colon;ed=brack	!	!	!	!	!	!	!	!	!	!
!	!	!LO:DY:a	!	!	!	!	!	!	!	!	!	!	!	!	!	!	!	!
8F\L	.	p	8b-/L	8a-\L	.	p	16b-\LL	p	8F\L	post	.	.	2r	.	.	2r	.	.
.	.	.	.	.	.	.	16cc\	.	.	.	.	.	.	.	.	.	.	.
!	!	!	!	!	!	!LO:MO:null:mod=!LO&colon;DY&colon;ed=brack	!	!LO:MO:null:mod=!LO&colon;DY&colon;ed=brack	!	!	!	!	!	!	!	!	!	!
!	!	!LO:DY:a	!	!	!	!	!	!	!	!	!	!	!	!	!	!	!	!
8BB-\	.	f	8b-/J	8a-\J	.	f	16b-\	f	8BB-/J	.	.	.	.	.	.	.	.	.
.	.	.	.	.	.	.	16ff\JJ	.	.	.	.	.	.	.	.	.	.	.
!	!	!	!	!	!	!LO:MO:null:mod=!LO&colon;DY&colon;ed=brack	!	!LO:MO:null:mod=!LO&colon;DY&colon;ed=brack	!	!	!	!	!	!	!	!	!	!
!	!	!LO:DY:a	!	!	!	!	!	!	!	!	!	!	!	!	!	!	!	!
8E-\	.	p	8b-/L	8g\L	.	p	16b-\LL	p	8F\	choc	.	.	.	.	.	.	.	.
.	.	.	.	.	.	.	16cc\	.	.	.	.	.	.	.	.	.	.	.
!	!	!	!	!	!	!LO:MO:null:mod=!LO&colon;DY&colon;ed=brack	!	!LO:MO:null:mod=!LO&colon;DY&colon;ed=brack	!	!	!	!	!	!	!	!	!	!
!	!	!LO:DY:a	!	!	!	!	!	!	!	!	!	!	!	!	!	!	!	!
8BB-\J	.	f	8b-/J	8g\J	.	f	16b-\	f	8r	.	.	.	.	.	.	.	.	.
.	.	.	.	.	.	.	16ee-\JJ	.	.	.	.	.	.	.	.	.	.	.
=122	=122	=122	=122	=122	=122	=122	=122	=122	=122	=122	=122	=122	=122	=122	=122	=122	=122	=122
!	!	!	!	!	!	!	!	!	!LO:LB:g=original	!	!	!	!	!	!	!	!	!
8D\L	.	.	8b-/L	8a-\L	.	.	16b-\LL	.	8d\L	no-	.	.	2r	.	.	2r	.	.
.	.	.	.	.	.	.	16cc\	.	.	.	.	.	.	.	.	.	.	.
8BB-\	.	.	8b-/J	8a-\J	.	.	16b-\	.	8B-\J	.	.	.	.	.	.	.	.	.
.	.	.	.	.	.	.	16aa-\JJ	.	.	.	.	.	.	.	.	.	.	.
8E-\	.	.	8b-/L	8g\L	.	.	16b-\LL	.	8e-\	-bis	.	.	.	.	.	.	.	.
.	.	.	.	.	.	.	16cc\	.	.	.	.	.	.	.	.	.	.	.
8BB-\J	.	.	8b-/J	8g\J	.	.	16b-\	.	8r	.	.	.	.	.	.	.	.	.
.	.	.	.	.	.	.	16gg\JJ	.	.	.	.	.	.	.	.	.	.	.
*	*	*	*v	*v	*	*	*	*	*	*	*	*	*	*	*	*	*	*
=123	=123	=123	=123	=123	=123	=123	=123	=123	=123	=123	=123	=123	=123	=123	=123	=123	=123
!	!	!	!LO:TX:t=P:problem=brak taktu	!	!	!	!	!	!	!	!	!	!	!	!	!	!
.	.	.	.	.	.	.	.	8qqg/	.	.	.	.	.	.	.	.	.
8F\L	.	.	2ryy	.	.	16b-\LL	.	8f\L	no-	.	.	2r	.	.	2r	.	.
.	.	.	.	.	.	16cc\	.	.	.	.	.	.	.	.	.	.	.
8BB-\	.	.	.	.	.	16b-\	.	8d\J	-bis	.	.	.	.	.	.	.	.
.	.	.	.	.	.	16ff\JJ	.	.	.	.	.	.	.	.	.	.	.
!	!	!	!	!	!	!LO:TX:t=P:problem= mixed beam	!	!	!	!	!	!	!	!	!	!	!
8E-\	.	.	.	.	.	8ee-\L	.	8e-\L	os-	.	.	.	.	.	.	.	.
8G\J	.	.	.	.	.	8g/J	.	8G\J	.	.	.	.	.	.	.	.	.
=124	=124	=124	=124	=124	=124	=124	=124	=124	=124	=124	=124	=124	=124	=124	=124	=124	=124
*tremolo	*	*	*tremolo	*	*	*tremolo	*	*	*	*	*	*	*	*	*	*	*
16A-\LL	.	.	16a-/LL	.	.	16a-/LL	.	4A-\	-ten-	.	.	2r	.	.	2r	.	.
16A-\	.	.	16a-/	.	.	16a-/	.	.	.	.	.	.	.	.	.	.	.
16A-\	.	.	16a-/	.	.	16a-/	.	.	.	.	.	.	.	.	.	.	.
16A-\JJ	.	.	16a-/JJ	.	.	16a-/JJ	.	.	.	.	.	.	.	.	.	.	.
16B-\LL	.	.	16b-/LL	.	.	16b-/LL	.	4B-\	.	.	.	.	.	.	.	.	.
16B-\	.	.	16b-/	.	.	16b-/	.	.	.	.	.	.	.	.	.	.	.
16B-\	.	.	16b-/	.	.	16b-/	.	.	.	.	.	.	.	.	.	.	.
16B-\JJ	.	.	16b-/JJ	.	.	16b-/JJ	.	.	.	.	.	.	.	.	.	.	.
*Xtremolo	*	*	*Xtremolo	*	*	*Xtremolo	*	*	*	*	*	*	*	*	*	*	*
=125	=125	=125	=125	=125	=125	=125	=125	=125	=125	=125	=125	=125	=125	=125	=125	=125	=125
4c\	.	.	16cc\LL	.	.	16cc\LL	.	4c\	-de	.	.	2r	.	.	2r	.	.
.	.	.	16bn\	.	.	16bn\	.	.	.	.	.	.	.	.	.	.	.
.	.	.	16cc\	.	.	16cc\	.	.	.	.	.	.	.	.	.	.	.
.	.	.	16b\JJ	.	.	16b\JJ	.	.	.	.	.	.	.	.	.	.	.
8r	.	.	8cc\L	.	.	8cc\L	.	8r	.	.	.	.	.	.	.	.	.
8G\	.	.	8g\J	.	.	8g\J	.	8G\	os-	.	.	.	.	.	.	.	.
=126	=126	=126	=126	=126	=126	=126	=126	=126	=126	=126	=126	=126	=126	=126	=126	=126	=126
!	!	!	!	!	!	!LO:LB:g=original	!	!	!	!	!	!	!	!	!	!	!
8.A-\L	.	.	8.a-X\L	.	.	8.a-/L	.	8.A-\L	-ten-	.	.	2r	.	.	2r	.	.
16F\Jk	.	.	16f\Jk	.	.	16f/Jk	.	16F\Jk	.	.	.	.	.	.	.	.	.
8.B-\L	.	.	8.b-\L	.	.	8.b-/L	.	8.B-\L	.	.	.	.	.	.	.	.	.
16G\Jk	.	.	16g\Jk	.	.	16g/Jk	.	16G\Jk	.	.	.	.	.	.	.	.	.
=127	=127	=127	=127	=127	=127	=127	=127	=127	=127	=127	=127	=127	=127	=127	=127	=127	=127
!LO:LB:g=original	!	!	!	!	!	!	!	!	!	!	!	!	!	!	!	!	!
8E-\L	.	.	4e-/	.	.	4e-/	.	4E-\	-de	.	.	2r	.	.	2r	.	.
8BB-\J	.	.	.	.	.	.	.	.	.	.	.	.	.	.	.	.	.
8EE-/	.	.	4r	.	.	4r	.	4r	.	.	.	.	.	.	.	.	.
8r	.	.	.	.	.	.	.	.	.	.	.	.	.	.	.	.	.
=128	=128	=128	=128	=128	=128	=128	=128	=128	=128	=128	=128	=128	=128	=128	=128	=128	=128
*tremolo	*	*	*	*	*	*	*	*	*	*	*	*	*	*	*	*	*
!	!	!	!	!	!LO:MO:null:mod=!LO&colon;DY&colon;ed=brack	!	!LO:MO:null:mod=!LO&colon;DY&colon;ed=brack	!	!	!	!	!	!	!LO:MO:null:mod=!LO&colon;DY&colon;ed=brack	!	!	!LO:MO:null:mod=!LO&colon;DY&colon;ed=brack
!	!	!LO:DY:a:t=p.	!	!	!	!	!	!	!	!	!	!	!	!	!	!	!
8E-\L	.	p	4.G/	.	p	4.e- 4.G/	p	2r	.	.	.	4.g/	.	p	4.ee-\	.	p
8E-\	.	.	.	.	.	.	.	.	.	.	.	.	.	.	.	.	.
8E-\	.	.	.	.	.	.	.	.	.	.	.	.	.	.	.	.	.
8E-\J	.	.	16A-/LL	.	.	16f/LL	.	.	.	.	.	16a-/LL	.	.	16ff\LL	.	.
.	.	.	16B-/JJ	.	.	16g/JJ	.	.	.	.	.	16b-/JJ	.	.	16gg\JJ	.	.
=129	=129	=129	=129	=129	=129	=129	=129	=129	=129	=129	=129	=129	=129	=129	=129	=129	=129
.	.	.	.	.	.	8qqg/	.	.	.	.	.	.	.	.	8qqgg/	.	.
8E-\L	.	.	8A-/L	.	.	8f/L	.	2r	.	.	.	8a-/L	.	.	8ff\L	.	.
8E-\	.	.	8G/J	.	.	8e-/J	.	.	.	.	.	8g/J	.	.	8ee-\J	.	.
8E-\	.	.	8r	.	.	8r	.	.	.	.	.	8r	.	.	8r	.	.
8E-\J	.	.	8B-/	.	.	8g/	.	.	.	.	.	8b-\	.	.	8gg\	.	.
=130	=130	=130	=130	=130	=130	=130	=130	=130	=130	=130	=130	=130	=130	=130	=130	=130	=130
8E-\L	.	.	8A-/L	.	.	8f/L	.	2r	.	.	.	8a-\L	.	.	8ff\L	.	.
8E-\	.	.	8G/J	.	.	8e-/J	.	.	.	.	.	8g\J	.	.	8ee-\J	.	.
!	!	!	!	!	!	!	!	!	!	!	!	!LO:LB:g=original	!	!	!	!	!
8E-\	.	.	4r	.	.	4r	.	.	.	.	.	8r	.	.	4r	.	.
8E-\J	.	.	.	.	.	.	.	.	.	.	.	8b-\	.	.	.	.	.
=131	=131	=131	=131	=131	=131	=131	=131	=131	=131	=131	=131	=131	=131	=131	=131	=131	=131
!	!	!	!	!	!	!	!	!	!	!	!	!	!	!	!LO:LB:g=original	!	!
8BB-/L	.	.	4.d/	.	.	4.f 4.B-/	.	2r	.	.	.	4.dd\	.	.	4.ff\	.	.
8BB-/	.	.	.	.	.	.	.	.	.	.	.	.	.	.	.	.	.
8BB-/	.	.	.	.	.	.	.	.	.	.	.	.	.	.	.	.	.
8BB-/J	.	.	16e-/LL	.	.	16g/LL	.	.	.	.	.	16ee-\LL	.	.	16gg\LL	.	.
.	.	.	16f/JJ	.	.	16a-/JJ	.	.	.	.	.	16ff\JJ	.	.	16aa-\JJ	.	.
=132	=132	=132	=132	=132	=132	=132	=132	=132	=132	=132	=132	=132	=132	=132	=132	=132	=132
8BB-/L	.	.	8e-/L	.	.	8g/L	.	2r	.	.	.	8ee-\L	.	.	8gg\L	.	.
8BB-/	.	.	8d/J	.	.	8f/J	.	.	.	.	.	8dd\J	.	.	8ff\J	.	.
8BB-/	.	.	8r	.	.	8r	.	.	.	.	.	8r	.	.	8r	.	.
8BB-/J	.	.	8f/	.	.	8a-/	.	.	.	.	.	8ff\	.	.	8aa-\	.	.
=133	=133	=133	=133	=133	=133	=133	=133	=133	=133	=133	=133	=133	=133	=133	=133	=133	=133
!	!	!	!LO:PB:g=original	!	!	!	!	!	!	!	!	!	!	!	!	!	!
8BB-/L	.	.	8e-/L	.	.	8g/L	.	2r	.	.	.	8ee-\L	.	.	8gg\L	.	.
8BB-/	.	.	8d/J	.	.	8f/J	.	.	.	.	.	8dd\J	.	.	8ff\J	.	.
8BB-/	.	.	4r	.	.	4r	.	.	.	.	.	4r	.	.	4r	.	.
8BB-/J	.	.	.	.	.	.	.	.	.	.	.	.	.	.	.	.	.
*Xtremolo	*	*	*	*	*	*	*	*	*	*	*	*	*	*	*	*	*
=134	=134	=134	=134	=134	=134	=134	=134	=134	=134	=134	=134	=134	=134	=134	=134	=134	=134
!	!	!	!	!	!	!LO:LB:g=original	!	!	!	!	!	!	!	!	!	!	!
!	!	!	!	!	!	!LO:TX:t=P:problem= mixed beam	!	!	!	!	!	!	!	!	!LO:TX:t=P:problem= mixed beam	!	!
8E-\L	.	.	8r	.	.	8e-/L	.	2r	.	.	.	8r	.	.	8e-/L	.	.
8E-\	.	.	8g/L	.	.	8ee-\	.	.	.	.	.	8g/L	.	.	8ee-\	.	.
8F\	.	.	8a-/	.	.	8ee-\	.	.	.	.	.	8a-/	.	.	8ee-\	.	.
8G\J	.	.	8b-/J	.	.	8ee-\J	.	.	.	.	.	8b-/J	.	.	8ee-\J	.	.
=135	=135	=135	=135	=135	=135	=135	=135	=135	=135	=135	=135	=135	=135	=135	=135	=135	=135
.	.	.	8qqcc/	.	.	8qqee-/	.	.	.	.	.	.	.	.	.	.	.
4A-\	.	.	8b-\L	.	.	8dd\L	.	2r	.	.	.	2r	.	.	2r	.	.
.	.	.	16a-\L	.	.	16cc\L	.	.	.	.	.	.	.	.	.	.	.
.	.	.	16g\JJ	.	.	16b-\JJ	.	.	.	.	.	.	.	.	.	.	.
!LO:TX:t=P:problem= mixed beam	!	!	!	!	!	!	!	!	!	!	!	!	!	!	!	!	!
.	.	.	8qqg/	.	.	8qqb-/	.	.	.	.	.	.	.	.	.	.	.
8B-\L	.	.	8f/L	.	.	8a-\L	.	.	.	.	.	.	.	.	.	.	.
8BB-/J	.	.	16e-/L	.	.	16g\L	.	.	.	.	.	.	.	.	.	.	.
.	.	.	16d/JJ	.	.	16f\JJ	.	.	.	.	.	.	.	.	.	.	.
=136	=136	=136	=136	=136	=136	=136	=136	=136	=136	=136	=136	=136	=136	=136	=136	=136	=136
!LO:LB:g=original	!	!	!	!	!	!LO:TX:t=P:problem= mixed beam	!	!	!	!	!	!	!	!	!LO:TX:t=P:problem= mixed beam	!	!
8E-\L	.	.	8e-/L	.	.	8e-/L	.	2r	.	.	.	8e-/L	.	.	8e-/L	.	.
8E-\	.	.	8g/	.	.	8ee-\	.	.	.	.	.	8g/	.	.	8ee-\	.	.
8F\	.	.	8a-/	.	.	8ee-\	.	.	.	.	.	8a-/	.	.	8ee-\	.	.
8G\J	.	.	8b-/J	.	.	8ee-\J	.	.	.	.	.	8b-/J	.	.	8ee-\J	.	.
=137	=137	=137	=137	=137	=137	=137	=137	=137	=137	=137	=137	=137	=137	=137	=137	=137	=137
.	.	.	8qqcc/	.	.	8qqee-/	.	.	.	.	.	.	.	.	.	.	.
4A-\	.	.	8b-\L	.	.	8dd\L	.	2r	.	.	.	2r	.	.	2r	.	.
.	.	.	16a-\L	.	.	16cc\L	.	.	.	.	.	.	.	.	.	.	.
.	.	.	16g\JJ	.	.	16b-\JJ	.	.	.	.	.	.	.	.	.	.	.
!LO:TX:t=P:problem= mixed beam	!	!	!	!	!	!	!	!	!	!	!	!	!	!	!	!	!
.	.	.	8qqg/	.	.	8qqb-/	.	.	.	.	.	.	.	.	.	.	.
8B-\L	.	.	8f/L	.	.	8a-\L	.	.	.	.	.	.	.	.	.	.	.
8BB-/J	.	.	16e-/L	.	.	16g\L	.	.	.	.	.	.	.	.	.	.	.
.	.	.	16d/JJ	.	.	16f\JJ	.	.	.	.	.	.	.	.	.	.	.
=138	=138	=138	=138	=138	=138	=138	=138	=138	=138	=138	=138	=138	=138	=138	=138	=138	=138
!LO:TX:t=P:problem=nadliczbowa pauza w B	!	!	!LO:TX:t=P:problem=nadliczbowa pauza w B	!	!	!LO:TX:t=P:problem=nadliczbowa pauza w B	!	!LO:TX:t=P:problem=nadliczbowa pauza	!	!	!	!LO:TX:t=P:problem=nadliczbowa pauza w B	!	!	!LO:TX:t=P:problem=nadliczbowa pauza w B	!	!
2ryy	.	.	2ryy	.	.	2ryy	.	2r	.	.	.	2ryy	.	.	2ryy	.	.
=139	=139	=139	=139	=139	=139	=139	=139	=139	=139	=139	=139	=139	=139	=139	=139	=139	=139
*tremolo	*	*	*	*	*	*	*	*	*	*	*	*	*	*	*	*	*
8E-\L	.	.	4.G/	.	.	4.e- 4.G/	.	4.E-\	O	.	.	4.g/	.	.	4.ee-\	.	.
8E-\	.	.	.	.	.	.	.	.	.	.	.	.	.	.	.	.	.
8E-\	.	.	.	.	.	.	.	.	.	.	.	.	.	.	.	.	.
8E-\J	.	.	16A-/LL	.	.	16f/LL	.	16F\LL	.	.	.	16a-/LL	.	.	16ff\LL	.	.
.	.	.	16B-/JJ	.	.	16g/JJ	.	16G\JJ	.	.	.	16b-/JJ	.	.	16gg\JJ	.	.
=140	=140	=140	=140	=140	=140	=140	=140	=140	=140	=140	=140	=140	=140	=140	=140	=140	=140
!	!	!	!	!	!	!	!	!LO:LB:g=original	!	!	!	!	!	!	!	!	!
.	.	.	.	.	.	8qqg/	.	.	.	.	.	.	.	.	.	.	.
8E-\L	.	.	8A-/L	.	.	8f/L	.	8F\	Cle-	.	.	8a-/L	.	.	8ff\L	.	.
8E-\	.	.	8G/J	.	.	8e-/J	.	8E-\	-mens	.	.	8g/J	.	.	8ee-\J	.	.
8E-\	.	.	8r	.	.	8r	.	4r	.	.	.	8r	.	.	8r	.	.
8E-\J	.	.	8B-/	.	.	8g/	.	.	.	.	.	8b-\	.	.	8gg\	.	.
=141	=141	=141	=141	=141	=141	=141	=141	=141	=141	=141	=141	=141	=141	=141	=141	=141	=141
*	*	*	*	*	*	*	*	*	*ij	*	*	*	*	*	*	*	*
.	.	.	.	.	.	8qqg/	.	.	.	.	.	.	.	.	.	.	.
8E-\L	.	.	8A-/L	.	.	8f/L	.	8BB-/	Cle-	.	.	8a-\L	.	.	8ff\L	.	.
8E-\	.	.	8G/J	.	.	8e-/J	.	8E-\	-mens	.	.	8g\J	.	.	8ee-\J	.	.
8E-\	.	.	4r	.	.	4r	.	4r	.	.	.	4r	.	.	4r	.	.
8E-\J	.	.	.	.	.	.	.	.	.	.	.	.	.	.	.	.	.
*	*	*	*	*	*	*	*	*	*Xij	*	*	*	*	*	*	*	*
=142	=142	=142	=142	=142	=142	=142	=142	=142	=142	=142	=142	=142	=142	=142	=142	=142	=142
!	!	!	!	!	!	!	!	!	!	!	!	!	!	!	!LO:LB:g=original	!	!
!	!	!	!	!	!	!	!	!	!	!	!	!LO:LB:g=original	!	!	!	!	!
!	!	!	!	!	!	!LO:LB:g=original	!	!	!	!	!	!	!	!	!	!	!
!	!	!	!LO:LB:g=original	!	!	!	!	!	!	!	!	!	!	!	!	!	!
8BB-/L	.	.	4.d/	.	.	4.f 4.B-/	.	4.F\	O	.	.	4.dd\	.	.	4.ff\	.	.
8BB-/	.	.	.	.	.	.	.	.	.	.	.	.	.	.	.	.	.
8BB-/	.	.	.	.	.	.	.	.	.	.	.	.	.	.	.	.	.
8BB-/J	.	.	16e-/LL	.	.	16g/LL	.	16G\LL	.	.	.	16ee-\LL	.	.	16gg\LL	.	.
.	.	.	16f/JJ	.	.	16a-/JJ	.	16A-\JJ	.	.	.	16ff\JJ	.	.	16aa-\JJ	.	.
=143	=143	=143	=143	=143	=143	=143	=143	=143	=143	=143	=143	=143	=143	=143	=143	=143	=143
8BB-/L	.	.	8e-/L	.	.	8g/L	.	8G\	pi-	.	.	8ee-\L	.	.	8gg\L	.	.
8BB-/	.	.	8d/J	.	.	8f/J	.	8F\	-a	.	.	8dd\J	.	.	8ff\J	.	.
8BB-/	.	.	8r	.	.	8r	.	4r	.	.	.	8r	.	.	8r	.	.
8BB-/J	.	.	8f/	.	.	8a-/	.	.	.	.	.	8ff\	.	.	8aa-\	.	.
=144	=144	=144	=144	=144	=144	=144	=144	=144	=144	=144	=144	=144	=144	=144	=144	=144	=144
*	*	*	*	*	*	*	*	*	*ij	*	*	*	*	*	*	*	*
8BB-/L	.	.	8e-/L	.	.	8g/L	.	8E-\	pi-	.	.	8ee-\L	.	.	8gg\L	.	.
8BB-/	.	.	8d/J	.	.	8f/J	.	8BB-/	-a	.	.	8dd\J	.	.	8ff\J	.	.
8BB-/	.	.	4r	.	.	4r	.	4r	.	.	.	4r	.	.	4r	.	.
8BB-/J	.	.	.	.	.	.	.	.	.	.	.	.	.	.	.	.	.
*Xtremolo	*	*	*	*	*	*	*	*	*Xij	*	*	*	*	*	*	*	*
=145	=145	=145	=145	=145	=145	=145	=145	=145	=145	=145	=145	=145	=145	=145	=145	=145	=145
4E-\	.	.	4g/	.	.	4b-/	.	2B-\	O	.	.	4b-\	.	.	4bb-\	.	.
4r	.	.	8e-/L	.	.	8g/L	.	.	.	.	.	4e-/	.	.	8gg\L	.	.
.	.	.	8g/J	.	.	8b-/J	.	.	.	.	.	.	.	.	8bb-\J	.	.
=146	=146	=146	=146	=146	=146	=146	=146	=146	=146	=146	=146	=146	=146	=146	=146	=146	=146
.	.	.	.	.	.	8qqb-/	.	.	.	.	.	.	.	.	8qqbb-/	.	.
4BB-/	.	.	4f/	.	.	4a-/	.	2B-\	dul-	.	.	4ff\	.	.	4aa-\	.	.
4r	.	.	8d/L	.	.	8f/L	.	.	.	.	.	8dd\L	.	.	8ff\L	.	.
.	.	.	8f/J	.	.	8a-/J	.	.	.	.	.	8ee-\J	.	.	8gg\J	.	.
=147	=147	=147	=147	=147	=147	=147	=147	=147	=147	=147	=147	=147	=147	=147	=147	=147	=147
!LO:LB:g=original	!	!	!	!	!	!	!	!LO:LB:g=original	!	!	!	!	!	!	!	!	!
.	.	.	.	.	.	8qqa-/	.	.	.	.	.	.	.	.	8qqaa-/	.	.
4EE-/	.	.	4B-/	.	.	4g/	.	2B-\	-cis	.	.	4ee-\	.	.	4gg\	.	.
4r	.	.	8G/L	.	.	8e-/L	.	.	.	.	.	8dd\L	.	.	8ff\L	.	.
.	.	.	8B-/J	.	.	8g/J	.	.	.	.	.	8ee-\J	.	.	8gg\J	.	.
=148	=148	=148	=148	=148	=148	=148	=148	=148	=148	=148	=148	=148	=148	=148	=148	=148	=148
.	.	.	.	.	.	8qqg/	.	.	.	.	.	.	.	.	8qqgg/	.	.
4BB-/	.	.	4.A-/	.	.	4f/	.	2B-\	Vir-	.	.	4ff\	.	.	4ff\	.	.
4r	.	.	.	.	.	8d/L	.	.	.	.	.	8b-\L	.	.	8dd\L	.	.
.	.	.	8A-/	.	.	8f/J	.	.	.	.	.	8dd\J	.	.	8ff\J	.	.
=149	=149	=149	=149	=149	=149	=149	=149	=149	=149	=149	=149	=149	=149	=149	=149	=149	=149
4E-\	.	.	16G/LL	.	.	16e-/LL	.	4e-\	-go	.	.	16g/LL	.	.	16ee-\LL	.	.
.	.	.	16A-/	.	.	16f/	.	.	.	.	.	16a-/	.	.	16ff\	.	.
.	.	.	16G/	.	.	16e-/	.	.	.	.	.	16g/	.	.	16ee-\	.	.
.	.	.	16A-/JJ	.	.	16f/JJ	.	.	.	.	.	16a-/JJ	.	.	16ff\JJ	.	.
!	!	!	!	!	!	!LO:LB:g=original	!	!	!	!	!	!	!	!	!	!	!
4r	.	.	16B-/LL	.	.	16g/LL	.	4E-\	ma-	.	.	16b-/LL	.	.	16gg\LL	.	.
.	.	.	16c/	.	.	16a-/	.	.	.	.	.	16cc/	.	.	16aa-\	.	.
.	.	.	16B-/	.	.	16g/	.	.	.	.	.	16b-/	.	.	16gg\	.	.
.	.	.	16A-/JJ	.	.	16f/JJ	.	.	.	.	.	16a-/JJ	.	.	16ff\JJ	.	.
=150	=150	=150	=150	=150	=150	=150	=150	=150	=150	=150	=150	=150	=150	=150	=150	=150	=150
!	!	!	!	!	!	!	!	!	!	!	!	!	!	!	!LO:LB:g=original	!	!
!	!	!	!LO:LB:g=original	!	!	!	!	!	!	!	!	!	!	!	!	!	!
4E-\	.	.	16G/LL	.	.	16e-/LL	.	2E-\	-ri-	.	.	16g/LL	.	.	16ee-\LL	.	.
.	.	.	16A-/	.	.	16f/	.	.	.	.	.	16a-/	.	.	16ff\	.	.
.	.	.	16G/	.	.	16e-/	.	.	.	.	.	16g/	.	.	16ee-\	.	.
.	.	.	16A-/JJ	.	.	16f/JJ	.	.	.	.	.	16a-/JJ	.	.	16ff\JJ	.	.
!	!	!	!	!	!	!	!	!	!	!	!	!LO:LB:g=original	!	!	!	!	!
4r	.	.	16B-/LL	.	.	16g/LL	.	.	.	.	.	16b-/LL	.	.	16gg\LL	.	.
.	.	.	16c/	.	.	16a-/	.	.	.	.	.	16cc/	.	.	16aa-\	.	.
.	.	.	16B-/	.	.	16g/	.	.	.	.	.	16b-/	.	.	16gg\	.	.
.	.	.	16A-/JJ	.	.	16f/JJ	.	.	.	.	.	16a-/JJ	.	.	16ff\JJ	.	.
=151	=151	=151	=151	=151	=151	=151	=151	=151	=151	=151	=151	=151	=151	=151	=151	=151	=151
4E-\	.	.	4G/	.	.	4e-/	.	4E-\	-a	.	.	4g/	.	.	4ee-\	.	.
4r	.	.	8r	.	.	8r	.	4r	.	.	.	4r	.	.	4r	.	.
.	.	.	8B-/	.	.	8b-\	.	.	.	.	.	.	.	.	.	.	.
=152	=152	=152	=152	=152	=152	=152	=152	=152	=152	=152	=152	=152	=152	=152	=152	=152	=152
*tremolo	*	*	*	*	*	*	*	*	*	*	*	*	*	*	*	*	*
8A-\L	5:6	.	8e-/L	.	.	16bn\LL	.	2r	.	.	.	2r	.	.	2r	.	.
.	.	.	.	.	.	16cc\J	.	.	.	.	.	.	.	.	.	.	.
8A-\	.	.	8e-/	.	.	8.cc\J	.	.	.	.	.	.	.	.	.	.	.
8A-\	.	.	8f/	.	.	.	.	.	.	.	.	.	.	.	.	.	.
.	.	.	.	.	.	16aa-\LL	.	.	.	.	.	.	.	.	.	.	.
8A-\J	.	.	8f/J	.	.	16ff\	.	.	.	.	.	.	.	.	.	.	.
.	.	.	.	.	.	16dd\JJ	.	.	.	.	.	.	.	.	.	.	.
=153	=153	=153	=153	=153	=153	=153	=153	=153	=153	=153	=153	=153	=153	=153	=153	=153	=153
*	*	*	*tremolo	*	*	*	*	*	*	*	*	*	*	*	*	*	*
8G\L	6	.	8e-/L	.	.	16dd\LL	.	2r	.	.	.	2r	.	.	2r	.	.
.	.	.	.	.	.	16ee-\J	.	.	.	.	.	.	.	.	.	.	.
8G\	.	.	8e-/	.	.	8.ee-\J	.	.	.	.	.	.	.	.	.	.	.
8G\	.	.	8e-/	.	.	.	.	.	.	.	.	.	.	.	.	.	.
.	.	.	.	.	.	16bb-\LL	.	.	.	.	.	.	.	.	.	.	.
8G\J	.	.	8e-/J	.	.	16gg\	.	.	.	.	.	.	.	.	.	.	.
.	.	.	.	.	.	16ee-\JJ	.	.	.	.	.	.	.	.	.	.	.
*	*	*	*Xtremolo	*	*	*	*	*	*	*	*	*	*	*	*	*	*
=154	=154	=154	=154	=154	=154	=154	=154	=154	=154	=154	=154	=154	=154	=154	=154	=154	=154
8A-\L	5:6	.	8e-/L	.	.	16bn\LL	.	2r	.	.	.	2r	.	.	2r	.	.
.	.	.	.	.	.	16cc\J	.	.	.	.	.	.	.	.	.	.	.
8A-\	.	.	8e-/	.	.	8.cc\J	.	.	.	.	.	.	.	.	.	.	.
8A-\	.	.	8f/	.	.	.	.	.	.	.	.	.	.	.	.	.	.
.	.	.	.	.	.	16aa-\LL	.	.	.	.	.	.	.	.	.	.	.
8A-\J	.	.	8f/J	.	.	16ff\	.	.	.	.	.	.	.	.	.	.	.
.	.	.	.	.	.	16dd\JJ	.	.	.	.	.	.	.	.	.	.	.
*Xtremolo	*	*	*	*	*	*	*	*	*	*	*	*	*	*	*	*	*
=155	=155	=155	=155	=155	=155	=155	=155	=155	=155	=155	=155	=155	=155	=155	=155	=155	=155
!	!	!	!LO:TX:t=P:problem= mixed beam	!	!	!	!	!	!	!	!	!LO:TX:t=P:problem= mixed beam	!	!	!	!	!
8G\L	6	.	16e-/LL	.	.	16ee-\LL	.	2r	.	.	.	16e-/LL	.	.	16ee-\LL	.	.
.	.	.	32ee-\L	.	.	32gg\L	.	.	.	.	.	32ee-\L	.	.	32gg\L	.	.
!	!	!	!LO:SIC:v:s=32dd\JJJ	!	!	!	!	!	!	!	!	!	!	!	!	!	!
.	.	.	32ee-\JJJ	.	.	32ff\JJJ	.	.	.	.	.	32dd\JJJ	.	.	32ff\JJJ	.	.
16r	.	.	16ee-\LL	.	.	16gg\LL	.	.	.	.	.	16ee-\LL	.	.	16gg\LL	.	.
16e-\Jk	3	.	16ee-\JJ	.	.	16gg\JJ	.	.	.	.	.	16ee-\JJ	.	.	16gg\JJ	.	.
!	!	!	!	!	!	!LO:LB:g=original	!	!	!	!	!	!	!	!	!	!	!
16e-\LL	3	.	16ee-\LL	.	.	16gg\LL	.	.	.	.	.	8ee-\	.	.	8gg\	.	.
16d\	3	.	16dd\	.	.	16ff\	.	.	.	.	.	.	.	.	.	.	.
16c\	3	.	16cc\	.	.	16ee-\	.	.	.	.	.	8r	.	.	8r	.	.
16B-\JJ	3	.	16b-\JJ	.	.	16dd\JJ	.	.	.	.	.	.	.	.	.	.	.
=156	=156	=156	=156	=156	=156	=156	=156	=156	=156	=156	=156	=156	=156	=156	=156	=156	=156
!LO:LB:g=original	!	!	!	!	!	!	!	!	!	!	!	!	!	!	!	!	!
8A-\L	.	.	16a-\LL	.	.	16cc\LL	.	2r	.	.	.	16a-\LL	.	.	16cc\LL	.	.
.	.	.	32cc\L	.	.	32ee-\L	.	.	.	.	.	32cc\L	.	.	32ee-\L	.	.
.	.	.	32b-\JJJ	.	.	32dd\JJJ	.	.	.	.	.	32b-\JJJ	.	.	32dd\JJJ	.	.
16r	.	.	16cc\LL	.	.	16ee-\LL	.	.	.	.	.	16cc\LL	.	.	16ee-\LL	.	.
16c\Jk	.	.	16cc\JJ	.	.	16ee-\JJ	.	.	.	.	.	16cc\JJ	.	.	16ee-\JJ	.	.
16c\LL	.	.	16cc\LL	.	.	16ee-\LL	.	.	.	.	.	8cc\	.	.	16ee-\LL	.	.
16B-\	.	.	16b-\	.	.	16dd\	.	.	.	.	.	.	.	.	16dd\	.	.
16A-\	.	.	16a-\	.	.	16cc\	.	.	.	.	.	8r	.	.	16cc\	.	.
16G\JJ	.	.	16g\JJ	.	.	16b-\JJ	.	.	.	.	.	.	.	.	16b-\JJ	.	.
=157	=157	=157	=157	=157	=157	=157	=157	=157	=157	=157	=157	=157	=157	=157	=157	=157	=157
!	!	!	!LO:LB:g=original	!	!	!	!	!	!	!	!	!	!	!	!	!	!
8F\L	.	.	16f/LL	.	.	16a-/LL	.	2r	.	.	.	16f/LL	.	.	16a-\LL	.	.
.	.	.	32a-/L	.	.	32cc/L	.	.	.	.	.	32a-/L	.	.	32cc\L	.	.
.	.	.	32g/JJJ	.	.	32b-/JJJ	.	.	.	.	.	32g/JJJ	.	.	32b-\JJJ	.	.
16r	.	.	16a-/LL	.	.	16cc/LL	.	.	.	.	.	16a-/LL	.	.	16cc\LL	.	.
16A-\Jk	.	.	16a-/JJ	.	.	16cc/JJ	.	.	.	.	.	16a-/JJ	.	.	16cc\JJ	.	.
16A-\LL	.	.	16a-/LL	.	.	16cc/LL	.	.	.	.	.	16a-/LL	.	.	16cc\LL	.	.
16G\	.	.	16g/	.	.	16b-/	.	.	.	.	.	16g/	.	.	16b-\	.	.
16F\	.	.	16f/	.	.	16a-/	.	.	.	.	.	16f/	.	.	16a-\	.	.
16E-\JJ	.	.	16e-/JJ	.	.	16g/JJ	.	.	.	.	.	16e-/JJ	.	.	16g\JJ	.	.
=158	=158	=158	=158	=158	=158	=158	=158	=158	=158	=158	=158	=158	=158	=158	=158	=158	=158
!	!	!LO:MO:null:mod=!LO&colon;DY&colon;ed=brack	!	!	!LO:MO:null:mod=!LO&colon;DY&colon;ed=brack	!	!	!	!	!	!	!	!	!	!	!	!
!	!	!	!	!	!	!	!	!	!	!	!	!	!	!	!LO:LB:g=original	!	!
8D/L	.	f	8d/L	.	f	8f/	f	2r	.	.	.	2r	.	.	2r	.	.
16BB-/L	.	.	16d/L	.	.	4aa-\	.	.	.	.	.	.	.	.	.	.	.
16C/JJ	.	.	16e-/JJ	.	.	.	.	.	.	.	.	.	.	.	.	.	.
8D/L	.	.	8f/L	.	.	.	.	.	.	.	.	.	.	.	.	.	.
!	!	!LO:MO:null:mod=!LO&colon;DY&colon;ed=brack	!	!	!LO:MO:null:mod=!LO&colon;DY&colon;ed=brack	!	!	!	!	!	!	!	!	!	!	!	!
!	!	!	!	!	!	!	!	!	!	!	!	!	!	!	!	!	!
8BB-/J	.	p	8A-/J	.	p	16ff\LL	p	.	.	.	.	.	.	.	.	.	.
.	.	.	.	.	.	16dd\JJ	.	.	.	.	.	.	.	.	.	.	.
=159	=159	=159	=159	=159	=159	=159	=159	=159	=159	=159	=159	=159	=159	=159	=159	=159	=159
!LO:TX:t=P:problem= mixed beam	!	!	!	!	!	!	!	!	!	!	!	!	!	!	!	!	!
8E-\L	.	.	8G/L	.	.	16ee-\LL	.	2r	.	.	.	2r	.	.	2r	.	.
.	.	.	.	.	.	16bn\	.	.	.	.	.	.	.	.	.	.	.
8A-\	.	.	16A-/L	.	.	16cc\	.	.	.	.	.	.	.	.	.	.	.
.	.	.	16c/JJ	.	.	16a-\JJ	.	.	.	.	.	.	.	.	.	.	.
8B-\	.	.	8B-/L	.	.	8g/L	.	.	.	.	.	.	.	.	.	.	.
8BB-/J	.	.	8A-/J	.	.	8f/J	.	.	.	.	.	.	.	.	.	.	.
=160	=160	=160	=160	=160	=160	=160	=160	=160	=160	=160	=160	=160	=160	=160	=160	=160	=160
!LO:TX:t=P:problem= mixed beam	!	!	!	!	!	!	!	!	!	!	!	!	!	!	!	!	!
8E-\L	.	.	16G/LL	.	.	4e-/	.	2r	.	.	.	16G/LL	.	.	4ee-\	.	.
.	.	.	16B-/	.	.	.	.	.	.	.	.	16B-/	.	.	.	.	.
8G\	.	.	16G/	.	.	.	.	.	.	.	.	16G/	.	.	.	.	.
.	.	.	16B-/JJ	.	.	.	.	.	.	.	.	16B-/JJ	.	.	.	.	.
8B-\	.	.	16A-/LL	.	.	16d/LL	.	.	.	.	.	16A-/LL	.	.	16dd\LL	.	.
.	.	.	16B-/	.	.	16f/	.	.	.	.	.	16B-/	.	.	16ff\	.	.
8BB-/J	.	.	16A-/	.	.	16a-/	.	.	.	.	.	16A-/	.	.	16aa-\	.	.
.	.	.	16B-/JJ	.	.	16d/JJ	.	.	.	.	.	16B-/JJ	.	.	16dd\JJ	.	.
=161	=161	=161	=161	=161	=161	=161	=161	=161	=161	=161	=161	=161	=161	=161	=161	=161	=161
!LO:LB:g=original	!	!	!	!	!	!	!	!	!	!	!	!	!	!	!	!	!
!LO:TX:t=P:problem= mixed beam	!	!	!	!	!	!	!	!	!	!	!	!	!	!	!	!	!
8E-\L	.	.	16G/LL	.	.	16f/LL	.	2r	.	.	.	16G/LL	.	.	16ee-\LL	.	.
.	.	.	16B-/	.	.	16e-/J	.	.	.	.	.	16B-/	.	.	16dd\J	.	.
8E-\	.	.	16G/	.	.	8e-/J	.	.	.	.	.	16G/	.	.	8dd\J	.	.
.	.	.	16B-/JJ	.	.	.	.	.	.	.	.	16B-/JJ	.	.	.	.	.
!	!	!	!	!	!	!LO:LB:g=original	!	!	!	!	!	!	!	!	!	!	!
8B-\	.	.	16A-/LL	.	.	16d/LL	.	.	.	.	.	16A-/LL	.	.	16dd\LL	.	.
.	.	.	16B-/	.	.	16f/	.	.	.	.	.	16B-/	.	.	16ff\	.	.
8BB-/J	.	.	16A-/	.	.	16a-/	.	.	.	.	.	16A-/	.	.	16aa-\	.	.
.	.	.	16B-/JJ	.	.	16d/JJ	.	.	.	.	.	16B-/JJ	.	.	16dd\JJ	.	.
=162	=162	=162	=162	=162	=162	=162	=162	=162	=162	=162	=162	=162	=162	=162	=162	=162	=162
!	!	!	!LO:LB:g=original	!	!	!	!	!	!	!	!	!	!	!	!	!	!
8E-\	.	.	8G/	.	.	8e- 8G/	.	2r	.	.	.	8g/	.	.	8ee-\	.	.
8r	.	.	8r	.	.	8r	.	.	.	.	.	8r	.	.	8r	.	.
8EE-/	.	.	8e- 8G/	.	.	8e- 8G/	.	.	.	.	.	8g/	.	.	8ee-\	.	.
8r	.	.	8r	.	.	8r	.	.	.	.	.	8r	.	.	8r	.	.
=163	=163	=163	=163	=163	=163	=163	=163	=163	=163	=163	=163	=163	=163	=163	=163	=163	=163
4EE-/	.	.	4e- 4G/	.	.	4e- 4G/	.	2r	.	.	.	4g/	.	.	4ee-\	.	.
4r	.	.	4r	.	.	4r	.	.	.	.	.	4r	.	.	4r	.	.
==	==	==	==	==	==	==	==	==	==	==	==	==	==	==	==	==	==
*-	*-	*-	*-	*-	*-	*-	*-	*-	*-	*-	*-	*-	*-	*-	*-	*-	*-
!!!system-decoration: [(g1)]s3[(g2)]s6
!!!RDF**kern: > = above
!!!RDF**kern: < = below
!!!filter-modern: sic -sq | autostem -r | shed -e "s/LO:DY:(a|b|rj)/LO:dy:$1/L" | shed -e "s/TX(.*):t=P:/tx$1:t=P:/LG" | shed -e "s/^(X?)rep$/$1REP/I" | shed -e "s/TUP/tup/L; s/^(X)?tuplet/$1TUPLET/I" | shed -e "s/^(\d+[\/\\]right)/$1yy/I; s/^(\d+[\/\\]left)/$1yy/I" | modori -m |
!!!ENC: Berenika Jozajtis
!!!END: 2021-11-21
!!!ENC: Kamil Watkowski
!!!END: 2021-12-05
!!!ENC-modern: Leszek Kubiak
!!!END-modern: 2022-07-27
